; generated by Slic3r 0.9.9-dev on 2014-02-10 at 17:51:17

; layer_height = 0.4
; perimeters = 3
; top_solid_layers = 3
; bottom_solid_layers = 3
; fill_density = 0.4
; perimeter_speed = 30
; infill_speed = 60
; travel_speed = 130
; nozzle_diameter = 0.5
; filament_diameter = 3
; extrusion_multiplier = 1
; perimeters extrusion width = 0.53mm
; infill extrusion width = 0.53mm
; solid infill extrusion width = 0.53mm
; top infill extrusion width = 0.53mm
; first layer extrusion width = 0.70mm

G21 ; set units to millimeters
M107
M104 S200 ; set temperature
G28 ; home all axes
G1 Z5 F5000 ; lift nozzle

M109 S200 ; wait for temperature to be reached
G90 ; use absolute coordinates
G92 E0
M82 ; use absolute distances for extrusion
G1 F1800.000 E-1.00000
G92 E0
G1 Z0.350 F7800.000
G1 X-12.500 Y20.840
G1 F1800.000 E1.00000
G1 X212.500 Y20.840 F540.000 E8.32042
G1 X213.040 Y20.860 E8.33800
G1 X213.300 Y20.890 E8.34652
G1 X213.830 Y20.980 E8.36401
G1 X214.350 Y21.110 E8.38145
G1 X215.110 Y21.380 E8.40769
G1 X215.830 Y21.730 E8.43374
G1 X216.060 Y21.870 E8.44250
G1 X216.710 Y22.340 E8.46859
G1 X217.300 Y22.890 E8.49484
G1 X217.660 Y23.290 E8.51235
G1 X217.820 Y23.500 E8.52093
G1 X218.270 Y24.170 E8.54719
G1 X218.510 Y24.650 E8.56465
G1 X218.720 Y25.140 E8.58200
G1 X218.960 Y25.910 E8.60824
G1 X219.110 Y26.700 E8.63440
G1 X219.140 Y26.960 E8.64292
G1 X219.160 Y27.500 E8.66050
G1 X219.160 Y172.500 E13.37810
G1 X219.140 Y173.040 E13.39568
G1 X219.110 Y173.300 E13.40420
G1 X219.020 Y173.830 E13.42169
G1 X218.890 Y174.350 E13.43913
G1 X218.620 Y175.110 E13.46537
G1 X218.270 Y175.830 E13.49142
G1 X218.130 Y176.060 E13.50018
G1 X217.660 Y176.710 E13.52627
G1 X217.110 Y177.300 E13.55252
G1 X216.710 Y177.660 E13.57003
G1 X216.500 Y177.820 E13.57862
G1 X215.830 Y178.270 E13.60487
G1 X215.350 Y178.510 E13.62233
G1 X214.860 Y178.720 E13.63968
G1 X214.090 Y178.960 E13.66592
G1 X213.300 Y179.110 E13.69208
G1 X213.040 Y179.140 E13.70060
G1 X212.500 Y179.160 E13.71818
G1 X-12.500 Y179.160 E21.03860
G1 X-13.040 Y179.140 E21.05618
G1 X-13.300 Y179.110 E21.06470
G1 X-13.830 Y179.020 E21.08219
G1 X-14.350 Y178.890 E21.09963
G1 X-15.110 Y178.620 E21.12587
G1 X-15.830 Y178.270 E21.15191
G1 X-16.060 Y178.130 E21.16068
G1 X-16.710 Y177.660 E21.18677
G1 X-17.300 Y177.110 E21.21302
G1 X-17.660 Y176.710 E21.23052
G1 X-17.820 Y176.500 E21.23911
G1 X-18.270 Y175.830 E21.26537
G1 X-18.510 Y175.350 E21.28283
G1 X-18.720 Y174.860 E21.30018
G1 X-18.960 Y174.090 E21.32642
G1 X-19.110 Y173.300 E21.35258
G1 X-19.140 Y173.040 E21.36110
G1 X-19.160 Y172.500 E21.37868
G1 X-19.160 Y27.500 E26.09628
G1 X-19.140 Y26.960 E26.11386
G1 X-19.020 Y26.170 E26.13986
G1 X-18.810 Y25.390 E26.16614
G1 X-18.620 Y24.890 E26.18354
G1 X-18.270 Y24.170 E26.20959
G1 X-18.130 Y23.940 E26.21835
G1 X-17.660 Y23.290 E26.24445
G1 X-17.300 Y22.890 E26.26196
G1 X-16.710 Y22.340 E26.28820
G1 X-16.280 Y22.020 E26.30564
G1 X-15.830 Y21.730 E26.32306
G1 X-15.110 Y21.380 E26.34910
G1 X-14.610 Y21.190 E26.36651
G1 X-13.830 Y20.980 E26.39279
G1 X-13.040 Y20.860 E26.41878
G1 X-12.598 Y20.844 E26.43316
G1 F1800.000 E25.43316
G92 E0
G1 X100.171 Y100.171 F7800.000
G1 F1800.000 E1.00000
G1 X211.829 Y100.171 F378.000 E4.63279
G1 X211.829 Y171.829 E6.96417
G1 X100.171 Y171.829 E10.59695
G1 X100.171 Y100.270 E12.92512
G1 X100.171 Y99.514 F7800.000
G1 X100.171 Y99.829
G1 X100.171 Y28.171 F378.000 E15.25650
G1 X211.829 Y28.171 E18.88929
G1 X211.829 Y99.829 E21.22067
G1 X100.270 Y99.829 E24.85025
G1 X99.514 Y99.829 F7800.000
G1 X99.829 Y99.829
G1 X-11.829 Y99.829 F378.000 E28.48303
G1 X-11.829 Y28.171 E30.81441
G1 X99.829 Y28.171 E34.44720
G1 X99.829 Y99.730 E36.77537
G1 X99.829 Y100.486 F7800.000
G1 X99.829 Y100.171
G1 X99.829 Y171.829 F378.000 E39.10675
G1 X-11.829 Y171.829 E42.73954
G1 X-11.829 Y100.171 E45.07092
G1 X99.730 Y100.171 E48.70050
G1 X100.486 Y100.171 F7800.000
G1 F1800.000 E47.70050
G92 E0
G1 X212.171 Y172.171 F7800.000
G1 F1800.000 E1.00000
G1 X-12.171 Y172.171 F540.000 E8.29904
G1 X-12.171 Y27.829 E12.99527
G1 X212.171 Y27.829 E20.29432
G1 X212.171 Y172.073 E24.98734
G1 F1800.000 E23.98734
G92 E0
G1 X100.000 Y58.754 F7800.000
G1 F1800.000 E1.00000
G1 X100.000 Y28.110 F378.000 E1.99701
G1 X99.650 Y27.996 E2.00898
G1 X-11.976 Y28.024 E5.64076
G1 X-11.919 Y28.081 F7800.000
G1 X-12.003 Y57.723 F540.000 E6.60518
G1 X-12.003 Y57.723 F7800.000
G1 X-12.003 Y59.120 F540.000 E6.65065
G1 X-12.003 Y59.120 F7800.000
G1 X-12.003 Y59.470 F540.000 E6.66202
G1 X-12.003 Y59.470 F7800.000
G1 X-12.002 Y63.663 F540.000 E6.79843
G1 X-12.002 Y63.663 F7800.000
G1 X-12.002 Y66.108 F540.000 E6.87801
G1 X-12.002 Y66.108 F7800.000
G1 X-12.004 Y99.651 F378.000 E7.96931
G1 X-11.890 Y100.000 E7.98126
G1 X85.712 Y100.000 E11.15678
G1 X85.712 Y100.000 F7800.000
G1 X100.000 Y100.000 F378.000 E11.62164
G1 X100.000 Y58.754 E12.96359
G1 X100.000 Y28.110 F7800.000
G1 X100.350 Y27.996 F378.000 E12.97556
G1 X118.896 Y27.990 E13.57896
G1 X211.919 Y28.081 E16.60549
G1 X212.004 Y99.651 E18.93403
G1 X211.890 Y100.000 E18.94599
G1 X205.392 Y100.000 E19.15743
G1 X205.392 Y100.000 F7800.000
G1 X105.212 Y100.000 F378.000 E22.41678
G1 X105.212 Y100.000 F7800.000
G1 X102.769 Y100.000 F540.000 E22.49628
G1 X102.769 Y100.000 F7800.000
G1 X101.373 Y100.000 F540.000 E22.54170
G1 X101.373 Y100.000 F7800.000
G1 X100.000 Y100.000 F540.000 E22.58636
G1 X100.000 Y100.000 F7800.000
G1 X100.000 Y163.281 F378.000 E24.64522
G1 X100.000 Y163.281 F7800.000
G1 X100.000 Y171.890 F378.000 E24.92533
G1 X99.650 Y172.004 E24.93730
G1 X5.429 Y171.988 E28.00279
G1 X5.429 Y171.988 F7800.000
G1 X0.193 Y171.989 F540.000 E28.17314
G1 X0.193 Y171.989 F7800.000
G1 X-7.835 Y171.992 F540.000 E28.43435
G1 X-7.835 Y171.992 F7800.000
G1 X-11.919 Y171.919 F540.000 E28.56725
G1 X-11.976 Y171.976 F7800.000
G1 X-12.007 Y171.627 F540.000 E28.57866
G1 X-12.007 Y171.627 F7800.000
G1 X-12.003 Y144.373 F540.000 E29.46534
G1 X-12.003 Y144.373 F7800.000
G1 X-12.002 Y138.084 F540.000 E29.66996
G1 X-12.002 Y138.084 F7800.000
G1 X-12.002 Y136.687 F540.000 E29.71543
G1 X-12.002 Y136.687 F7800.000
G1 X-12.002 Y135.988 F540.000 E29.73817
G1 X-12.002 Y135.988 F7800.000
G1 X-12.002 Y135.639 F540.000 E29.74954
G1 X-12.002 Y135.639 F7800.000
G1 X-12.002 Y134.241 F540.000 E29.79501
G1 X-12.002 Y134.241 F7800.000
G1 X-12.004 Y100.349 F540.000 E30.89768
G1 X-11.890 Y100.000 E30.90963
G1 F1800.000 E29.90963
G92 E0
G1 X100.000 Y171.890 F7800.000
G1 F1800.000 E1.00000
G1 X100.350 Y172.004 F540.000 E1.01197
G1 X100.350 Y172.004 F7800.000
G1 X100.675 Y171.996 F540.000 E1.02254
G1 X100.675 Y171.996 F7800.000
G1 X102.799 Y172.005 F540.000 E1.09167
G1 X102.799 Y172.005 F7800.000
G1 X104.199 Y172.005 F540.000 E1.13721
G1 X104.199 Y172.005 F7800.000
G1 X195.269 Y171.988 F378.000 E4.10018
G1 X195.269 Y171.988 F7800.000
G1 X211.919 Y171.919 F540.000 E4.64191
G1 X211.996 Y149.640 E5.36676
G1 X211.996 Y149.640 F7800.000
G1 X212.004 Y100.349 F378.000 E6.97045
G1 X211.890 Y100.000 E6.98241
G1 X211.919 Y171.919 F7800.000
G1 X211.976 Y171.976 F540.000 E6.98502
G1 X211.919 Y28.081 F7800.000
G1 X211.975 Y28.025 F540.000 E6.98760
G1 X211.975 Y28.025 F7800.000
G1 X211.976 Y28.024 F540.000 E6.98764
G1 F1800.000 E5.98764
G92 E0
M104 S0 ; turn off temperature
G28 X0  ; home X axis
M84     ; disable motors

; filament used = 133.0mm (0.9cm3)
