; generated by Slic3r 0.9.9-dev on 2014-02-18 at 17:11:15

; layer_height = 0.3
; perimeters = 3
; top_solid_layers = 3
; bottom_solid_layers = 2
; fill_density = 0.5
; perimeter_speed = 30
; infill_speed = 60
; travel_speed = 60
; nozzle_diameter = 0.5
; filament_diameter = 3
; extrusion_multiplier = 1
; perimeters extrusion width = 0.70mm
; infill extrusion width = 0.70mm
; solid infill extrusion width = 0.70mm
; top infill extrusion width = 0.70mm
; first layer extrusion width = 0.70mm

G21 ; set units to millimeters
M107
M104 S160 ; set temperature
G28 ; home all axes
M109 S160 ; wait for temperature to be reached
G90 ; use absolute coordinates
G92 E0
M82 ; use absolute distances for extrusion
G1 F1800.000 E-1.00000
G92 E0
G1 Z0.350 F3600.000
G1 X88.720 Y55.179
G1 F1800.000 E1.00000
G1 X89.050 Y54.719 F540.000 E1.01842
G1 X89.400 Y54.279 E1.03671
G1 X89.790 Y53.879 E1.05489
G1 X90.430 Y53.319 E1.08256
G1 X90.660 Y53.149 E1.09186
G1 X91.130 Y52.849 E1.11000
G1 X91.880 Y52.449 E1.13766
G1 X92.400 Y52.239 E1.15590
G1 X93.210 Y51.999 E1.18339
G1 X94.050 Y51.849 E1.21115
G1 X94.610 Y51.809 E1.22942
G1 X105.380 Y51.809 E1.57982
G1 X105.940 Y51.849 E1.59809
G1 X106.500 Y51.939 E1.61654
G1 X107.050 Y52.069 E1.63493
G1 X107.590 Y52.239 E1.65335
G1 X108.110 Y52.449 E1.67159
G1 X108.620 Y52.709 E1.69022
G1 X109.100 Y52.999 E1.70846
G1 X109.330 Y53.149 E1.71740
G1 X109.780 Y53.499 E1.73595
G1 X110.200 Y53.879 E1.75437
G1 X110.590 Y54.279 E1.77255
G1 X110.940 Y54.719 E1.79084
G1 X111.270 Y55.179 E1.80926
G1 X131.400 Y89.579 E3.10602
G1 X131.670 Y90.069 E3.12422
G1 X132.100 Y90.979 E3.15696
G1 X132.370 Y91.669 E3.18107
G1 X132.590 Y92.309 E3.20309
G1 X132.720 Y92.729 E3.21739
G1 X132.880 Y93.359 E3.23854
G1 X133.110 Y94.559 E3.27829
G1 X133.210 Y95.439 E3.30711
G1 X133.250 Y96.449 E3.34000
G1 X133.250 Y112.769 E3.87097
G1 X133.210 Y113.789 E3.90418
G1 X133.170 Y114.199 E3.91758
G1 X133.040 Y115.099 E3.94717
G1 X132.880 Y115.869 E3.97276
G1 X132.720 Y116.499 E3.99391
G1 X132.590 Y116.919 E4.00821
G1 X124.030 Y143.149 E4.90590
G1 X123.940 Y143.419 E4.91516
G1 X123.720 Y143.949 E4.93383
G1 X123.460 Y144.459 E4.95246
G1 X123.310 Y144.709 E4.96194
G1 X123.160 Y144.949 E4.97115
G1 X122.820 Y145.409 E4.98976
G1 X122.250 Y146.059 E5.01789
G1 X121.830 Y146.439 E5.03632
G1 X121.380 Y146.799 E5.05507
G1 X120.900 Y147.119 E5.07384
G1 X120.400 Y147.399 E5.09248
G1 X119.880 Y147.639 E5.11111
G1 X119.340 Y147.839 E5.12985
G1 X118.510 Y148.049 E5.15770
G1 X117.940 Y148.139 E5.17648
G1 X117.370 Y148.189 E5.19509
G1 X82.620 Y148.189 E6.32569
G1 X82.050 Y148.139 E6.34431
G1 X81.200 Y147.989 E6.37239
G1 X80.650 Y147.839 E6.39094
G1 X80.110 Y147.639 E6.40968
G1 X79.590 Y147.399 E6.42831
G1 X79.090 Y147.119 E6.44695
G1 X78.610 Y146.799 E6.46572
G1 X78.390 Y146.629 E6.47477
G1 X77.740 Y146.059 E6.50290
G1 X77.540 Y145.849 E6.51233
G1 X77.170 Y145.409 E6.53103
G1 X76.830 Y144.949 E6.54965
G1 X76.530 Y144.459 E6.56834
G1 X76.270 Y143.949 E6.58696
G1 X76.050 Y143.419 E6.60563
G1 X75.960 Y143.149 E6.61489
G1 X67.400 Y116.919 E7.51259
G1 X67.270 Y116.499 E7.52689
G1 X67.110 Y115.869 E7.54804
G1 X66.950 Y115.099 E7.57363
G1 X66.880 Y114.669 E7.58780
G1 X66.780 Y113.709 E7.61920
G1 X66.740 Y112.779 E7.64949
G1 X66.740 Y96.439 E8.18111
G1 X66.780 Y95.519 E8.21107
G1 X66.880 Y94.559 E8.24248
G1 X67.110 Y93.359 E8.28223
G1 X67.270 Y92.729 E8.30338
G1 X67.400 Y92.309 E8.31768
G1 X67.610 Y91.699 E8.33867
G1 X67.860 Y91.059 E8.36103
G1 X68.320 Y90.069 E8.39654
G1 X68.590 Y89.579 E8.41475
G1 X88.672 Y55.265 E9.70829
G1 X89.290 Y55.519 F3600.000
G1 X89.440 Y55.289 F540.000 E9.71723
G1 X89.780 Y54.849 E9.73532
G1 X89.960 Y54.639 E9.74432
G1 X90.350 Y54.249 E9.76226
G1 X90.770 Y53.889 E9.78026
G1 X91.220 Y53.559 E9.79842
G1 X91.700 Y53.279 E9.81650
G1 X92.200 Y53.029 E9.83468
G1 X92.980 Y52.739 E9.86176
G1 X93.510 Y52.609 E9.87951
G1 X94.060 Y52.509 E9.89770
G1 X94.610 Y52.469 E9.91564
G1 X105.100 Y52.459 E10.25694
G1 X105.930 Y52.509 E10.28399
G1 X106.480 Y52.609 E10.30218
G1 X107.010 Y52.739 E10.31993
G1 X107.790 Y53.029 E10.34701
G1 X108.290 Y53.279 E10.36520
G1 X108.770 Y53.559 E10.38328
G1 X109.430 Y54.059 E10.41021
G1 X109.840 Y54.439 E10.42840
G1 X110.210 Y54.849 E10.44637
G1 X110.550 Y55.289 E10.46446
G1 X110.850 Y55.759 E10.48260
G1 X130.840 Y89.909 E11.77004
G1 X131.500 Y91.249 E11.81864
G1 X131.750 Y91.879 E11.84069
G1 X131.960 Y92.499 E11.86199
G1 X132.240 Y93.499 E11.89577
G1 X132.460 Y94.669 E11.93450
G1 X132.560 Y95.499 E11.96170
G1 X132.600 Y96.469 E11.99329
G1 X132.600 Y112.749 E12.52296
G1 X132.590 Y113.219 E12.53826
G1 X132.520 Y114.139 E12.56828
G1 X132.390 Y114.989 E12.59625
G1 X132.240 Y115.729 E12.62082
G1 X131.960 Y116.729 E12.65461
G1 X123.410 Y142.939 E13.55158
G1 X123.220 Y143.449 E13.56929
G1 X122.860 Y144.179 E13.59577
G1 X122.580 Y144.629 E13.61301
G1 X122.260 Y145.059 E13.63045
G1 X122.080 Y145.269 E13.63945
G1 X121.510 Y145.849 E13.66591
G1 X121.100 Y146.189 E13.68324
G1 X120.430 Y146.639 E13.70950
G1 X119.950 Y146.889 E13.72710
G1 X119.200 Y147.189 E13.75339
G1 X118.680 Y147.339 E13.77099
G1 X118.150 Y147.449 E13.78860
G1 X117.620 Y147.519 E13.80600
G1 X117.080 Y147.539 E13.82358
G1 X82.910 Y147.539 E14.93531
G1 X82.370 Y147.519 E14.95289
G1 X81.570 Y147.399 E14.97921
G1 X81.050 Y147.269 E14.99665
G1 X80.540 Y147.099 E15.01414
G1 X80.040 Y146.889 E15.03178
G1 X79.560 Y146.639 E15.04939
G1 X78.890 Y146.189 E15.07565
G1 X78.480 Y145.849 E15.09298
G1 X78.090 Y145.469 E15.11069
G1 X77.730 Y145.059 E15.12845
G1 X77.410 Y144.629 E15.14588
G1 X77.260 Y144.409 E15.15455
G1 X76.880 Y143.699 E15.18075
G1 X76.580 Y142.939 E15.20733
G1 X68.030 Y116.729 E16.10431
G1 X67.750 Y115.729 E16.13809
G1 X67.600 Y114.989 E16.16266
G1 X67.470 Y114.089 E16.19224
G1 X67.400 Y113.199 E16.22129
G1 X67.390 Y112.759 E16.23561
G1 X67.390 Y96.459 E16.76593
G1 X67.430 Y95.579 E16.79459
G1 X67.530 Y94.669 E16.82438
G1 X67.750 Y93.499 E16.86311
G1 X67.900 Y92.919 E16.88260
G1 X68.090 Y92.319 E16.90308
G1 X68.460 Y91.329 E16.93746
G1 X68.730 Y90.739 E16.95857
G1 X69.150 Y89.909 E16.98884
G1 X89.238 Y55.602 E18.28227
G1 F1800.000 E17.28227
G92 E0
G1 X96.539 Y60.761 F3600.000
G1 F1800.000 E1.00000
G1 X103.461 Y60.761 F540.000 E1.22520
G1 X103.461 Y134.217 E3.61509
G1 X111.836 Y136.209 E3.89519
G1 X111.836 Y136.771 E3.91349
G1 X114.131 Y136.771 E3.98815
G1 X115.622 Y137.143 E4.03815
G1 X115.525 Y139.237 E4.10636
G1 X84.475 Y139.237 E5.11658
G1 X84.378 Y137.143 E5.18480
G1 X85.869 Y136.771 E5.23480
G1 X88.164 Y136.771 E5.30945
G1 X88.164 Y136.209 E5.32775
G1 X96.539 Y134.217 E5.60785
G1 X96.539 Y60.860 E7.99454
G1 X95.882 Y60.104 F3600.000
G1 X104.118 Y60.104 F540.000 E8.26249
G1 X104.118 Y133.696 E10.65682
G1 X112.493 Y135.691 E10.93694
G1 X112.493 Y136.114 E10.95070
G1 X114.211 Y136.114 E11.00657
G1 X116.300 Y136.636 E11.07665
G1 X116.151 Y139.894 E11.18277
G1 X83.849 Y139.894 E12.23371
G1 X83.700 Y136.636 E12.33983
G1 X85.789 Y136.114 E12.40990
G1 X87.507 Y136.114 E12.46577
G1 X87.507 Y135.691 E12.47954
G1 X95.882 Y133.696 E12.75966
G1 X95.882 Y60.203 E15.15078
G1 X95.225 Y59.447 F3600.000
G1 X104.775 Y59.447 F378.000 E15.46149
G1 X104.775 Y133.175 E17.86025
G1 X113.150 Y135.177 E18.14041
G1 X113.150 Y135.457 E18.14954
G1 X114.290 Y135.457 E18.18663
G1 X116.978 Y136.131 E18.27679
G1 X116.773 Y140.551 E18.42075
G1 X83.227 Y140.551 E19.51220
G1 X83.022 Y136.131 E19.65616
G1 X85.710 Y135.457 E19.74632
G1 X86.850 Y135.457 E19.78341
G1 X86.850 Y135.177 E19.79253
G1 X95.225 Y133.175 E20.07270
G1 X95.225 Y59.546 E22.46825
G1 X95.794 Y59.776 F3600.000
G1 F1800.000 E21.46825
G92 E0
G1 X81.943 Y109.944 F3600.000
G1 F1800.000 E1.00000
G1 X82.172 Y110.011 F540.000 E1.00776
G1 X82.615 Y110.186 E1.02324
G1 X83.033 Y110.416 E1.03877
G1 X83.370 Y110.658 E1.05228
G1 X83.597 Y110.853 E1.06201
G1 X83.923 Y111.201 E1.07751
G1 X84.069 Y111.389 E1.08527
G1 X84.324 Y111.791 E1.10076
G1 X84.433 Y112.004 E1.10852
G1 X84.608 Y112.446 E1.12400
G1 X84.674 Y112.675 E1.13178
G1 X84.763 Y113.143 E1.14725
G1 X84.786 Y113.380 E1.15501
G1 X84.786 Y113.857 E1.17053
G1 X84.726 Y114.329 E1.18601
G1 X84.674 Y114.562 E1.19377
G1 X84.527 Y115.015 E1.20928
G1 X84.324 Y115.446 E1.22478
G1 X84.069 Y115.848 E1.24027
G1 X83.923 Y116.037 E1.24803
G1 X83.723 Y116.258 E1.25775
G1 X83.418 Y116.542 E1.27128
G1 X83.229 Y116.688 E1.27905
G1 X82.828 Y116.943 E1.29452
G1 X82.615 Y117.051 E1.30230
G1 X82.172 Y117.227 E1.31778
G1 X81.943 Y117.293 E1.32554
G1 X81.476 Y117.382 E1.34102
G1 X81.238 Y117.405 E1.34878
G1 X80.762 Y117.405 E1.36430
G1 X80.290 Y117.345 E1.37977
G1 X80.057 Y117.293 E1.38753
G1 X79.603 Y117.146 E1.40305
G1 X79.172 Y116.943 E1.41855
G1 X78.770 Y116.688 E1.43404
G1 X78.582 Y116.542 E1.44179
G1 X78.403 Y116.384 E1.44955
G1 X78.077 Y116.037 E1.46506
G1 X77.931 Y115.848 E1.47281
G1 X77.676 Y115.446 E1.48830
G1 X77.567 Y115.233 E1.49607
G1 X77.392 Y114.791 E1.51155
G1 X77.326 Y114.562 E1.51932
G1 X77.237 Y114.094 E1.53480
G1 X77.214 Y113.857 E1.54256
G1 X77.214 Y113.380 E1.55807
G1 X77.274 Y112.908 E1.57354
G1 X77.326 Y112.675 E1.58131
G1 X77.392 Y112.446 E1.58908
G1 X77.567 Y112.004 E1.60456
G1 X77.676 Y111.791 E1.61233
G1 X77.931 Y111.389 E1.62781
G1 X78.077 Y111.201 E1.63557
G1 X78.403 Y110.853 E1.65107
G1 X78.582 Y110.696 E1.65884
G1 X78.967 Y110.416 E1.67432
G1 X79.172 Y110.294 E1.68208
G1 X79.603 Y110.092 E1.69758
G1 X80.057 Y109.944 E1.71310
G1 X80.290 Y109.892 E1.72086
G1 X80.762 Y109.833 E1.73633
G1 X81.000 Y109.825 E1.74409
G1 X81.476 Y109.855 E1.75961
G1 X81.847 Y109.923 E1.77188
G1 X81.741 Y110.572 F3600.000
G1 X81.969 Y110.636 F540.000 E1.77960
G1 X82.335 Y110.781 E1.79241
G1 X82.843 Y111.081 E1.81161
G1 X83.286 Y111.472 E1.83083
G1 X83.648 Y111.938 E1.85002
G1 X83.916 Y112.464 E1.86923
G1 X84.081 Y113.031 E1.88844
G1 X84.130 Y113.422 E1.90125
G1 X84.130 Y113.816 E1.91407
G1 X84.038 Y114.398 E1.93326
G1 X83.916 Y114.773 E1.94608
G1 X83.748 Y115.130 E1.95890
G1 X83.416 Y115.618 E1.97810
G1 X82.999 Y116.035 E1.99730
G1 X82.511 Y116.367 E2.01650
G1 X81.969 Y116.601 E2.03571
G1 X81.393 Y116.730 E2.05491
G1 X80.803 Y116.749 E2.07413
G1 X80.220 Y116.656 E2.09332
G1 X79.845 Y116.534 E2.10615
G1 X79.489 Y116.367 E2.11896
G1 X79.001 Y116.035 E2.13816
G1 X78.583 Y115.618 E2.15737
G1 X78.252 Y115.130 E2.17657
G1 X78.017 Y114.588 E2.19577
G1 X77.889 Y114.012 E2.21497
G1 X77.870 Y113.422 E2.23419
G1 X77.962 Y112.839 E2.25338
G1 X78.162 Y112.284 E2.27258
G1 X78.463 Y111.775 E2.29179
G1 X78.853 Y111.333 E2.31100
G1 X79.319 Y110.971 E2.33020
G1 X79.845 Y110.703 E2.34941
G1 X80.413 Y110.538 E2.36863
G1 X81.000 Y110.483 E2.38782
G1 X81.393 Y110.507 E2.40064
G1 X81.644 Y110.551 E2.40893
G1 X81.464 Y111.184 F3600.000
G1 X81.913 Y111.314 F540.000 E2.42412
G1 X82.328 Y111.526 E2.43929
G1 X82.697 Y111.812 E2.45447
G1 X83.005 Y112.162 E2.46965
G1 X83.243 Y112.563 E2.48483
G1 X83.401 Y113.002 E2.50001
G1 X83.474 Y113.463 E2.51518
G1 X83.474 Y113.774 E2.52532
G1 X83.435 Y114.083 E2.53544
G1 X83.305 Y114.531 E2.55062
G1 X83.093 Y114.947 E2.56580
G1 X82.807 Y115.315 E2.58098
G1 X82.457 Y115.624 E2.59616
G1 X82.055 Y115.861 E2.61134
G1 X81.616 Y116.020 E2.62651
G1 X81.156 Y116.093 E2.64169
G1 X80.844 Y116.093 E2.65182
G1 X80.536 Y116.053 E2.66195
G1 X80.087 Y115.923 E2.67713
G1 X79.672 Y115.711 E2.69231
G1 X79.303 Y115.426 E2.70749
G1 X78.995 Y115.076 E2.72267
G1 X78.757 Y114.674 E2.73785
G1 X78.599 Y114.235 E2.75302
G1 X78.526 Y113.774 E2.76820
G1 X78.526 Y113.463 E2.77833
G1 X78.565 Y113.154 E2.78845
G1 X78.695 Y112.706 E2.80364
G1 X78.907 Y112.290 E2.81881
G1 X79.193 Y111.922 E2.83399
G1 X79.543 Y111.613 E2.84917
G1 X79.945 Y111.376 E2.86435
G1 X80.384 Y111.218 E2.87953
G1 X80.844 Y111.145 E2.89471
G1 X81.156 Y111.145 E2.90484
G1 X81.367 Y111.168 E2.91175
G1 X81.784 Y110.844 F3600.000
G1 X83.259 Y107.817
G1 X83.843 Y108.138 F540.000 E2.93343
G1 X84.119 Y108.326 E2.94428
G1 X84.382 Y108.530 E2.95512
G1 X84.868 Y108.986 E2.97681
G1 X85.089 Y109.236 E2.98766
G1 X85.480 Y109.775 E3.00933
G1 X85.801 Y110.359 E3.03102
G1 X85.934 Y110.665 E3.04186
G1 X86.140 Y111.299 E3.06355
G1 X86.265 Y111.954 E3.08522
G1 X86.296 Y112.285 E3.09607
G1 X86.296 Y112.952 E3.11775
G1 X86.265 Y113.284 E3.12860
G1 X86.140 Y113.938 E3.15028
G1 X86.047 Y114.258 E3.16112
G1 X85.801 Y114.878 E3.18281
G1 X85.637 Y115.200 E3.19456
G1 X83.026 Y119.976 E3.37166
G1 X78.974 Y119.976 E3.50349
G1 X76.362 Y115.200 E3.68060
G1 X76.199 Y114.878 E3.69235
G1 X75.953 Y114.258 E3.71403
G1 X75.860 Y113.938 E3.72488
G1 X75.735 Y113.284 E3.74656
G1 X75.694 Y112.619 E3.76824
G1 X75.735 Y111.954 E3.78992
G1 X75.860 Y111.299 E3.81160
G1 X75.953 Y110.979 E3.82244
G1 X76.066 Y110.665 E3.83329
G1 X76.350 Y110.062 E3.85498
G1 X76.520 Y109.775 E3.86582
G1 X76.911 Y109.236 E3.88750
G1 X77.368 Y108.750 E3.90918
G1 X77.618 Y108.530 E3.92003
G1 X78.157 Y108.138 E3.94171
G1 X78.741 Y107.817 E3.96339
G1 X79.360 Y107.572 E3.98507
G1 X80.006 Y107.406 E4.00675
G1 X80.335 Y107.354 E4.01760
G1 X81.000 Y107.312 E4.03928
G1 X81.665 Y107.354 E4.06096
G1 X81.994 Y107.406 E4.07181
G1 X82.640 Y107.572 E4.09349
G1 X83.169 Y107.778 E4.11197
G1 X83.539 Y107.222 F3600.000
G1 X84.196 Y107.583 F540.000 E4.13633
G1 X84.505 Y107.794 E4.14852
G1 X84.802 Y108.023 E4.16071
G1 X85.348 Y108.536 E4.18508
G1 X85.595 Y108.817 E4.19727
G1 X86.035 Y109.423 E4.22164
G1 X86.396 Y110.079 E4.24600
G1 X86.545 Y110.423 E4.25819
G1 X86.777 Y111.136 E4.28256
G1 X86.858 Y111.501 E4.29475
G1 X86.952 Y112.244 E4.31912
G1 X86.964 Y112.619 E4.33131
G1 X86.952 Y112.993 E4.34350
G1 X86.858 Y113.736 E4.36787
G1 X86.777 Y114.102 E4.38005
G1 X86.545 Y114.814 E4.40442
G1 X86.219 Y115.507 E4.42933
G1 X83.416 Y120.633 E4.61942
G1 X78.584 Y120.633 E4.77661
G1 X75.781 Y115.507 E4.96670
G1 X75.604 Y115.158 E4.97943
G1 X75.328 Y114.462 E5.00380
G1 X75.223 Y114.102 E5.01599
G1 X75.083 Y113.366 E5.04036
G1 X75.048 Y112.993 E5.05255
G1 X75.048 Y112.244 E5.07691
G1 X75.083 Y111.871 E5.08910
G1 X75.223 Y111.136 E5.11347
G1 X75.455 Y110.423 E5.13784
G1 X75.774 Y109.745 E5.16221
G1 X76.175 Y109.113 E5.18657
G1 X76.405 Y108.817 E5.19876
G1 X76.917 Y108.271 E5.22313
G1 X77.199 Y108.023 E5.23532
G1 X77.804 Y107.583 E5.25969
G1 X78.461 Y107.222 E5.28405
G1 X78.805 Y107.074 E5.29624
G1 X79.157 Y106.947 E5.30843
G1 X79.882 Y106.760 E5.33280
G1 X80.252 Y106.702 E5.34499
G1 X81.000 Y106.655 E5.36936
G1 X81.747 Y106.702 E5.39373
G1 X82.118 Y106.760 E5.40591
G1 X82.843 Y106.947 E5.43028
G1 X83.449 Y107.183 E5.45145
G1 X83.802 Y106.620 F3600.000
G1 X84.190 Y106.816 F378.000 E5.46559
G1 X84.548 Y107.028 E5.47912
G1 X84.892 Y107.262 E5.49266
G1 X85.221 Y107.517 E5.50619
G1 X85.533 Y107.792 E5.51972
G1 X85.827 Y108.086 E5.53326
G1 X86.102 Y108.398 E5.54679
G1 X86.357 Y108.727 E5.56032
G1 X86.591 Y109.071 E5.57386
G1 X86.802 Y109.429 E5.58739
G1 X86.991 Y109.799 E5.60092
G1 X87.156 Y110.181 E5.61445
G1 X87.297 Y110.573 E5.62799
G1 X87.413 Y110.972 E5.64152
G1 X87.504 Y111.378 E5.65506
G1 X87.569 Y111.789 E5.66859
G1 X87.608 Y112.203 E5.68212
G1 X87.621 Y112.619 E5.69566
G1 X87.608 Y113.034 E5.70919
G1 X87.569 Y113.449 E5.72272
G1 X87.504 Y113.859 E5.73626
G1 X87.413 Y114.265 E5.74979
G1 X87.297 Y114.665 E5.76332
G1 X87.156 Y115.056 E5.77686
G1 X86.991 Y115.438 E5.79039
G1 X86.800 Y115.813 E5.80410
G1 X83.805 Y121.290 E6.00719
G1 X78.195 Y121.290 E6.18972
G1 X75.200 Y115.813 E6.39280
G1 X75.009 Y115.438 E6.40652
G1 X74.844 Y115.056 E6.42005
G1 X74.703 Y114.665 E6.43358
G1 X74.587 Y114.265 E6.44712
G1 X74.496 Y113.859 E6.46065
G1 X74.431 Y113.449 E6.47418
G1 X74.392 Y113.034 E6.48772
G1 X74.379 Y112.619 E6.50125
G1 X74.392 Y112.203 E6.51478
G1 X74.431 Y111.789 E6.52832
G1 X74.496 Y111.378 E6.54185
G1 X74.587 Y110.972 E6.55538
G1 X74.703 Y110.573 E6.56892
G1 X74.844 Y110.181 E6.58245
G1 X75.009 Y109.799 E6.59599
G1 X75.198 Y109.429 E6.60952
G1 X75.409 Y109.071 E6.62305
G1 X75.643 Y108.727 E6.63658
G1 X75.898 Y108.398 E6.65012
G1 X76.173 Y108.086 E6.66365
G1 X76.454 Y107.805 E6.67657
G1 X76.779 Y107.517 E6.69072
G1 X77.108 Y107.262 E6.70425
G1 X77.452 Y107.028 E6.71778
G1 X77.810 Y106.816 E6.73132
G1 X78.181 Y106.628 E6.74485
