; generated by Slic3r 0.9.9-dev on 2014-02-18 at 17:15:48

; layer_height = 0.3
; perimeters = 3
; top_solid_layers = 3
; bottom_solid_layers = 2
; fill_density = 0.5
; perimeter_speed = 30
; infill_speed = 60
; travel_speed = 60
; nozzle_diameter = 0.5
; filament_diameter = 3
; extrusion_multiplier = 1
; perimeters extrusion width = 0.70mm
; infill extrusion width = 0.70mm
; solid infill extrusion width = 0.70mm
; top infill extrusion width = 0.70mm
; first layer extrusion width = 0.70mm

G21 ; set units to millimeters
M107
M104 S160 ; set temperature
G28 ; home all axes
M109 S160 ; wait for temperature to be reached
G90 ; use absolute coordinates
G92 E0
M82 ; use absolute distances for extrusion
G1 F1800.000 E-1.00000
G92 E0
G1 Z0.350 F3600.000
G1 X90.470 Y85.101
G1 F1800.000 E1.00000
G1 X91.060 Y84.511 F600.000 E1.02715
G1 X91.500 Y84.151 E1.04564
G1 X91.950 Y83.831 E1.06361
G1 X92.440 Y83.541 E1.08213
G1 X93.200 Y83.191 E1.10936
G1 X93.720 Y83.001 E1.12737
G1 X94.260 Y82.851 E1.14560
G1 X95.090 Y82.701 E1.17304
G1 X95.650 Y82.661 E1.19131
G1 X104.330 Y82.661 E1.47372
G1 X104.890 Y82.701 E1.49198
G1 X105.720 Y82.851 E1.51942
G1 X106.260 Y83.001 E1.53766
G1 X107.040 Y83.301 E1.56485
G1 X107.790 Y83.681 E1.59220
G1 X108.480 Y84.151 E1.61937
G1 X108.920 Y84.511 E1.63786
G1 X109.510 Y85.101 E1.66501
G1 X110.030 Y85.761 E1.69235
G1 X110.340 Y86.231 E1.71066
G1 X110.720 Y86.981 E1.73802
G1 X111.020 Y87.761 E1.76521
G1 X111.230 Y88.581 E1.79275
G1 X111.320 Y89.131 E1.81088
G1 X111.360 Y89.691 E1.82915
G1 X111.360 Y93.251 E1.94497
G1 X111.320 Y93.811 E1.96324
G1 X111.170 Y94.641 E1.99068
G1 X111.020 Y95.181 E2.00891
G1 X110.720 Y95.961 E2.03610
G1 X110.340 Y96.711 E2.06346
G1 X109.870 Y97.401 E2.09062
G1 X109.510 Y97.841 E2.10912
G1 X109.320 Y98.041 E2.11809
G1 X108.920 Y98.431 E2.13627
G1 X108.480 Y98.791 E2.15477
G1 X108.030 Y99.111 E2.17273
G1 X107.790 Y99.261 E2.18194
G1 X107.300 Y99.521 E2.19999
G1 X106.520 Y99.851 E2.22754
G1 X105.720 Y100.091 E2.25472
G1 X104.890 Y100.241 E2.28216
G1 X104.330 Y100.281 E2.30042
G1 X95.650 Y100.281 E2.58283
G1 X95.090 Y100.241 E2.60110
G1 X94.260 Y100.091 E2.62854
G1 X93.720 Y99.941 E2.64677
G1 X92.940 Y99.641 E2.67396
G1 X92.190 Y99.261 E2.70132
G1 X91.500 Y98.791 E2.72848
G1 X91.060 Y98.431 E2.74698
G1 X90.860 Y98.241 E2.75595
G1 X90.470 Y97.841 E2.77413
G1 X90.110 Y97.401 E2.79262
G1 X89.790 Y96.951 E2.81059
G1 X89.640 Y96.711 E2.81980
G1 X89.380 Y96.221 E2.83784
G1 X89.050 Y95.441 E2.86540
G1 X88.810 Y94.641 E2.89257
G1 X88.660 Y93.811 E2.92002
G1 X88.620 Y93.251 E2.93828
G1 X88.620 Y89.691 E3.05411
G1 X88.660 Y89.131 E3.07237
G1 X88.750 Y88.581 E3.09051
G1 X88.960 Y87.761 E3.11805
G1 X89.150 Y87.241 E3.13606
G1 X89.380 Y86.721 E3.15456
G1 X89.640 Y86.231 E3.17260
G1 X89.790 Y85.991 E3.18181
G1 X90.110 Y85.541 E3.19978
G1 X90.408 Y85.177 E3.21507
G1 X90.770 Y85.761 F3600.000
G1 X91.320 Y85.171 F600.000 E3.24131
G1 X91.720 Y84.811 E3.25882
G1 X92.150 Y84.491 E3.27626
G1 X92.600 Y84.201 E3.29368
G1 X93.320 Y83.851 E3.31972
G1 X93.820 Y83.661 E3.33712
G1 X94.600 Y83.451 E3.36341
G1 X95.390 Y83.331 E3.38940
G1 X95.930 Y83.311 E3.40698
G1 X104.050 Y83.311 E3.67117
G1 X104.590 Y83.331 E3.68875
G1 X105.380 Y83.451 E3.71475
G1 X106.160 Y83.661 E3.74103
G1 X106.660 Y83.851 E3.75843
G1 X107.380 Y84.201 E3.78448
G1 X108.050 Y84.651 E3.81074
G1 X108.260 Y84.811 E3.81933
G1 X108.660 Y85.171 E3.83684
G1 X109.210 Y85.761 E3.86308
G1 X109.530 Y86.191 E3.88052
G1 X109.820 Y86.641 E3.89794
G1 X110.170 Y87.361 E3.92398
G1 X110.360 Y87.861 E3.94139
G1 X110.570 Y88.641 E3.96767
G1 X110.690 Y89.431 E3.99366
G1 X110.710 Y89.971 E4.01124
G1 X110.710 Y92.971 E4.10885
G1 X110.690 Y93.511 E4.12643
G1 X110.570 Y94.301 E4.15243
G1 X110.360 Y95.081 E4.17871
G1 X110.170 Y95.581 E4.19611
G1 X109.820 Y96.301 E4.22216
G1 X109.370 Y96.971 E4.24842
G1 X109.210 Y97.181 E4.25701
G1 X108.850 Y97.581 E4.27452
G1 X108.260 Y98.131 E4.30076
G1 X107.610 Y98.601 E4.32686
G1 X107.380 Y98.741 E4.33562
G1 X106.900 Y98.981 E4.35308
G1 X106.160 Y99.281 E4.37906
G1 X105.380 Y99.491 E4.40534
G1 X104.850 Y99.581 E4.42283
G1 X104.590 Y99.611 E4.43134
G1 X104.050 Y99.631 E4.44892
G1 X95.930 Y99.631 E4.71311
G1 X95.390 Y99.611 E4.73069
G1 X94.600 Y99.491 E4.75669
G1 X93.820 Y99.281 E4.78297
G1 X93.320 Y99.091 E4.80037
G1 X92.600 Y98.741 E4.82642
G1 X91.930 Y98.291 E4.85268
G1 X91.720 Y98.131 E4.86127
G1 X91.320 Y97.771 E4.87878
G1 X90.770 Y97.181 E4.90502
G1 X90.300 Y96.531 E4.93112
G1 X90.160 Y96.301 E4.93988
G1 X89.920 Y95.821 E4.95734
G1 X89.620 Y95.081 E4.98332
G1 X89.410 Y94.301 E5.00960
G1 X89.320 Y93.771 E5.02709
G1 X89.290 Y93.511 E5.03560
G1 X89.270 Y92.971 E5.05318
G1 X89.270 Y89.971 E5.15079
G1 X89.290 Y89.431 E5.16837
G1 X89.360 Y88.901 E5.18576
G1 X89.540 Y88.121 E5.21181
G1 X89.810 Y87.361 E5.23805
G1 X90.160 Y86.641 E5.26410
G1 X90.450 Y86.191 E5.28151
G1 X90.710 Y85.839 E5.29575
G1 F1800.000 E4.29575
G92 E0
G1 X96.924 Y90.956 F3600.000
G1 F1800.000 E1.00000
G1 X103.073 Y90.956 F600.000 E1.20006
G1 X103.073 Y91.985 E1.23353
G1 X96.924 Y91.985 E1.43359
G1 X96.924 Y91.055 E1.46386
G1 X96.267 Y90.299 F3600.000
G1 X103.730 Y90.299 F600.000 E1.70667
G1 X103.730 Y92.642 E1.78290
G1 X96.267 Y92.642 E2.02572
G1 X96.267 Y90.398 E2.09874
G1 X96.836 Y90.628 F3600.000
G1 X97.393 Y91.517
G1 X97.783 Y91.425 F600.000 E2.10551
G1 X97.875 Y91.517 E2.10770
G1 X98.265 Y91.425 E2.11447
G1 X98.357 Y91.517 E2.11666
G1 X98.747 Y91.425 E2.12343
G1 X98.839 Y91.517 E2.12563
G1 X99.229 Y91.425 E2.13239
G1 X99.321 Y91.517 E2.13459
G1 X99.711 Y91.425 E2.14136
G1 X99.803 Y91.517 E2.14355
G1 X100.194 Y91.425 E2.15032
G1 X100.285 Y91.517 E2.15251
G1 X100.676 Y91.425 E2.15928
G1 X100.768 Y91.517 E2.16147
G1 X101.158 Y91.425 E2.16824
G1 X101.250 Y91.517 E2.17044
G1 X101.640 Y91.425 E2.17720
G1 X101.732 Y91.517 E2.17940
G1 X102.122 Y91.425 E2.18617
G1 X102.214 Y91.517 E2.18836
G1 X102.605 Y91.425 E2.19513
M106 S255
G1 F1800.000 E1.19513
G92 E0
G1 Z0.650 F3600.000
G1 X103.384 Y90.953
G1 F1800.000 E1.00000
G1 X103.384 Y91.989 F600.000 E1.02879
G1 X96.619 Y91.989 E1.21672
G1 X96.619 Y90.953 E1.24551
G1 X103.286 Y90.953 E1.43071
G1 X104.039 Y90.298 F3600.000
G1 X104.039 Y92.644 F600.000 E1.49586
G1 X95.964 Y92.644 E1.72015
G1 X95.964 Y90.298 E1.78530
G1 X103.941 Y90.298 E2.00686
G1 X103.712 Y90.865 F3600.000
G1 X102.918 Y91.522
G1 X102.526 Y91.419 F600.000 E2.01287
G1 X102.423 Y91.523 E2.01504
G1 X102.032 Y91.419 E2.02105
G1 X101.928 Y91.523 E2.02322
G1 X101.537 Y91.419 E2.02923
G1 X101.434 Y91.523 E2.03140
G1 X101.043 Y91.419 E2.03741
G1 X100.939 Y91.523 E2.03958
G1 X100.548 Y91.419 E2.04558
G1 X100.444 Y91.523 E2.04776
G1 X100.053 Y91.419 E2.05376
G1 X99.950 Y91.523 E2.05594
G1 X99.559 Y91.419 E2.06194
G1 X99.455 Y91.523 E2.06411
G1 X99.064 Y91.419 E2.07012
G1 X98.961 Y91.523 E2.07229
G1 X98.569 Y91.419 E2.07830
G1 X98.466 Y91.523 E2.08047
G1 X98.075 Y91.419 E2.08648
G1 X97.971 Y91.523 E2.08865
G1 X97.580 Y91.419 E2.09466
G1 X97.477 Y91.523 E2.09683
G1 X97.085 Y91.419 E2.10284
G1 F1800.000 E1.10284
G92 E0
G1 Z0.950 F3600.000
G1 X96.505 Y90.953
G1 F1800.000 E1.00000
G1 X103.496 Y90.953 F600.000 E1.19421
G1 X103.496 Y91.989 E1.22300
G1 X96.505 Y91.989 E1.41721
G1 X96.505 Y91.051 E1.44327
G1 X95.850 Y90.298 F3600.000
G1 X104.150 Y90.298 F600.000 E1.67384
G1 X104.150 Y92.644 E1.73899
G1 X95.850 Y92.644 E1.96956
G1 X95.850 Y90.396 E2.03199
G1 X96.417 Y90.625 F3600.000
G1 X96.971 Y91.523
G1 X97.342 Y91.419 F600.000 E2.03746
G1 X97.445 Y91.523 E2.03954
G1 X97.816 Y91.419 E2.04501
G1 X97.919 Y91.523 E2.04710
G1 X98.290 Y91.419 E2.05257
G1 X98.393 Y91.523 E2.05465
G1 X98.764 Y91.419 E2.06012
G1 X98.867 Y91.523 E2.06220
G1 X99.238 Y91.419 E2.06767
G1 X99.341 Y91.523 E2.06976
G1 X99.712 Y91.419 E2.07523
G1 X99.815 Y91.523 E2.07731
G1 X100.185 Y91.419 E2.08278
G1 X100.289 Y91.523 E2.08486
G1 X100.659 Y91.419 E2.09034
G1 X100.763 Y91.523 E2.09242
G1 X101.133 Y91.419 E2.09789
G1 X101.237 Y91.523 E2.09997
G1 X101.607 Y91.419 E2.10544
G1 X101.711 Y91.523 E2.10752
G1 X102.081 Y91.419 E2.11300
G1 X102.185 Y91.523 E2.11508
G1 X102.555 Y91.419 E2.12055
G1 X102.659 Y91.523 E2.12263
G1 X103.030 Y91.419 E2.12811
G1 F1800.000 E1.12811
G92 E0
G1 Z1.250 F3600.000
G1 X103.518 Y90.953
G1 F1800.000 E1.00000
G1 X103.518 Y91.989 F600.000 E1.02879
G1 X96.482 Y91.989 E1.22425
G1 X96.482 Y90.953 E1.25304
G1 X103.420 Y90.953 E1.44577
G1 X104.173 Y90.298 F3600.000
G1 X104.173 Y92.644 F600.000 E1.51093
G1 X95.827 Y92.644 E1.74275
G1 X95.827 Y90.298 E1.80790
G1 X104.075 Y90.298 E2.03699
G1 X103.846 Y90.865 F3600.000
G1 X103.052 Y91.522
G1 X102.678 Y91.419 F600.000 E2.04255
G1 X102.574 Y91.523 E2.04465
G1 X102.200 Y91.419 E2.05021
G1 X102.097 Y91.523 E2.05231
G1 X101.723 Y91.419 E2.05787
G1 X101.619 Y91.523 E2.05996
G1 X101.245 Y91.419 E2.06552
G1 X101.142 Y91.523 E2.06762
G1 X100.768 Y91.419 E2.07318
G1 X100.664 Y91.523 E2.07528
G1 X100.290 Y91.419 E2.08084
G1 X100.187 Y91.523 E2.08293
G1 X99.813 Y91.419 E2.08849
G1 X99.710 Y91.523 E2.09059
G1 X99.336 Y91.419 E2.09615
G1 X99.232 Y91.523 E2.09825
G1 X98.858 Y91.419 E2.10381
G1 X98.755 Y91.523 E2.10590
G1 X98.381 Y91.419 E2.11146
G1 X98.277 Y91.523 E2.11356
G1 X97.903 Y91.419 E2.11912
G1 X97.800 Y91.523 E2.12122
G1 X97.426 Y91.419 E2.12678
G1 X97.322 Y91.523 E2.12887
G1 X96.948 Y91.419 E2.13443
G1 F1800.000 E1.13443
G92 E0
G1 Z1.550 F3600.000
G1 X96.482 Y90.953
G1 F1800.000 E1.00000
G1 X98.431 Y90.953 F600.000 E1.05414
G1 X98.431 Y91.989 E1.08293
G1 X96.482 Y91.989 E1.13707
G1 X96.482 Y91.051 E1.16313
G1 X95.827 Y90.298 F3600.000
G1 X99.085 Y90.298 F600.000 E1.25363
G1 X99.085 Y92.644 E1.31878
G1 X95.827 Y92.644 E1.40928
G1 X95.827 Y90.396 E1.47171
G1 X96.394 Y90.625 F3600.000
G1 F1800.000 E0.47171
G92 E0
G1 X101.569 Y90.953 F3600.000
G1 F1800.000 E1.00000
G1 X103.518 Y90.953 F600.000 E1.05414
G1 X103.518 Y91.989 E1.08293
G1 X101.569 Y91.989 E1.13707
G1 X101.569 Y91.051 E1.16313
G1 X100.915 Y90.298 F3600.000
G1 X104.173 Y90.298 F600.000 E1.25363
G1 X104.173 Y92.644 E1.31878
G1 X100.915 Y92.644 E1.40928
G1 X100.915 Y90.396 E1.47171
G1 X101.482 Y90.625 F3600.000
G1 F1800.000 E0.47171
G92 E0
G1 X96.948 Y91.523 F3600.000
G1 F1800.000 E1.00000
G1 X97.404 Y91.419 F600.000 E1.00785
G1 X97.508 Y91.523 E1.01031
G1 X97.964 Y91.419 E1.01817
G1 F1800.000 E0.01817
G92 E0
G1 X102.036 Y91.523 F3600.000
G1 F1800.000 E1.00000
G1 X102.492 Y91.419 F600.000 E1.00785
G1 X102.596 Y91.523 E1.01031
G1 X103.052 Y91.419 E1.01817
G1 F1800.000 E0.01817
G92 E0
G1 Z1.850 F3600.000
G1 X98.058 Y90.953
G1 F1800.000 E1.00000
G1 X98.058 Y91.989 F600.000 E1.02879
G1 X96.482 Y91.989 E1.07258
G1 X96.482 Y90.953 E1.10138
G1 X97.960 Y90.953 E1.14244
G1 X98.713 Y90.298 F3600.000
G1 X98.713 Y92.644 F600.000 E1.20759
G1 X95.827 Y92.644 E1.28775
G1 X95.827 Y90.298 E1.35290
G1 X98.615 Y90.298 E1.43032
G1 X98.386 Y90.865 F3600.000
G1 F1800.000 E0.43032
G92 E0
G1 X101.942 Y90.953 F3600.000
G1 F1800.000 E1.00000
G1 X103.518 Y90.953 F600.000 E1.04379
G1 X103.518 Y91.989 E1.07258
G1 X101.942 Y91.989 E1.11638
G1 X101.942 Y91.051 E1.14244
G1 X101.287 Y90.298 F3600.000
G1 X104.173 Y90.298 F600.000 E1.22259
G1 X104.173 Y92.644 E1.28775
G1 X101.287 Y92.644 E1.36790
G1 X101.287 Y90.396 E1.43032
G1 X101.854 Y90.625 F3600.000
G1 F1800.000 E0.43032
G92 E0
G1 Z2.150 F3600.000
G1 X97.877 Y90.953
G1 F1800.000 E1.00000
G1 X97.877 Y91.989 F600.000 E1.02879
G1 X96.482 Y91.989 E1.06756
G1 X96.482 Y90.953 E1.09635
G1 X97.779 Y90.953 E1.13239
G1 X98.532 Y90.298 F3600.000
G1 X98.532 Y92.644 F600.000 E1.19755
G1 X95.827 Y92.644 E1.27268
G1 X95.827 Y90.298 E1.33783
G1 X98.434 Y90.298 E1.41023
G1 X98.205 Y90.865 F3600.000
G1 F1800.000 E0.41023
G92 E0
G1 X102.123 Y90.953 F3600.000
G1 F1800.000 E1.00000
G1 X103.518 Y90.953 F600.000 E1.03877
G1 X103.518 Y91.989 E1.06756
G1 X102.123 Y91.989 E1.10633
G1 X102.123 Y91.051 E1.13239
G1 X101.468 Y90.298 F3600.000
G1 X104.173 Y90.298 F600.000 E1.20752
G1 X104.173 Y92.644 E1.27268
G1 X101.468 Y92.644 E1.34781
G1 X101.468 Y90.396 E1.41023
G1 X102.035 Y90.625 F3600.000
G1 F1800.000 E0.41023
G92 E0
G1 Z2.450 F3600.000
G1 X97.786 Y90.953
G1 F1800.000 E1.00000
G1 X97.786 Y91.989 F600.000 E1.02879
G1 X96.482 Y91.989 E1.06501
G1 X96.482 Y90.953 E1.09381
G1 X97.688 Y90.953 E1.12730
G1 X98.440 Y90.298 F3600.000
G1 X98.440 Y92.644 F600.000 E1.19245
G1 X95.827 Y92.644 E1.26504
G1 X95.827 Y90.298 E1.33019
G1 X98.342 Y90.298 E1.40005
G1 X98.113 Y90.865 F3600.000
G1 F1800.000 E0.40005
G92 E0
G1 X102.214 Y90.953 F3600.000
G1 F1800.000 E1.00000
G1 X103.518 Y90.953 F600.000 E1.03622
G1 X103.518 Y91.989 E1.06501
G1 X102.214 Y91.989 E1.10124
G1 X102.214 Y91.051 E1.12730
G1 X101.560 Y90.298 F3600.000
G1 X104.173 Y90.298 F600.000 E1.19988
G1 X104.173 Y92.644 E1.26504
G1 X101.560 Y92.644 E1.33762
G1 X101.560 Y90.396 E1.40005
G1 X102.127 Y90.625 F3600.000
G1 F1800.000 E0.40005
G92 E0
G1 Z2.750 F3600.000
G1 X97.777 Y90.953
G1 F1800.000 E1.00000
G1 X97.777 Y91.989 F600.000 E1.02879
G1 X96.482 Y91.989 E1.06477
G1 X96.482 Y90.953 E1.09356
G1 X97.679 Y90.953 E1.12681
G1 X98.431 Y90.298 F3600.000
G1 X98.431 Y92.644 F600.000 E1.19197
G1 X95.827 Y92.644 E1.26431
G1 X95.827 Y90.298 E1.32946
G1 X98.333 Y90.298 E1.39907
G1 X98.104 Y90.865 F3600.000
G1 F1800.000 E0.39907
G92 E0
G1 X102.223 Y90.953 F3600.000
G1 F1800.000 E1.00000
G1 X103.518 Y90.953 F600.000 E1.03598
G1 X103.518 Y91.989 E1.06477
G1 X102.223 Y91.989 E1.10075
G1 X102.223 Y91.051 E1.12681
G1 X101.569 Y90.298 F3600.000
G1 X104.173 Y90.298 F600.000 E1.19916
G1 X104.173 Y92.644 E1.26431
G1 X101.569 Y92.644 E1.33665
G1 X101.569 Y90.396 E1.39907
G1 X102.135 Y90.625 F3600.000
G1 F1800.000 E0.39907
G92 E0
G1 Z3.050 F3600.000
G1 X97.836 Y90.953
G1 F1800.000 E1.00000
G1 X97.836 Y91.989 F600.000 E1.02879
G1 X96.482 Y91.989 E1.06642
G1 X96.482 Y90.953 E1.09521
G1 X97.738 Y90.953 E1.13011
G1 X98.491 Y90.298 F3600.000
G1 X98.491 Y92.644 F600.000 E1.19526
G1 X95.827 Y92.644 E1.26925
G1 X95.827 Y90.298 E1.33440
G1 X98.393 Y90.298 E1.40566
G1 X98.164 Y90.865 F3600.000
G1 F1800.000 E0.40566
G92 E0
G1 X102.164 Y90.953 F3600.000
G1 F1800.000 E1.00000
G1 X103.518 Y90.953 F600.000 E1.03763
G1 X103.518 Y91.989 E1.06642
G1 X102.164 Y91.989 E1.10404
G1 X102.164 Y91.051 E1.13011
G1 X101.509 Y90.298 F3600.000
G1 X104.173 Y90.298 F600.000 E1.20409
G1 X104.173 Y92.644 E1.26925
G1 X101.509 Y92.644 E1.34323
G1 X101.509 Y90.396 E1.40566
G1 X102.076 Y90.625 F3600.000
G1 F1800.000 E0.40566
G92 E0
G1 Z3.350 F3600.000
G1 X97.988 Y90.953
G1 F1800.000 E1.00000
G1 X97.988 Y91.989 F600.000 E1.02879
G1 X96.482 Y91.989 E1.07064
G1 X96.482 Y90.953 E1.09943
G1 X97.890 Y90.953 E1.13855
G1 X98.643 Y90.298 F3600.000
G1 X98.643 Y92.644 F600.000 E1.20370
G1 X95.827 Y92.644 E1.28191
G1 X95.827 Y90.298 E1.34706
G1 X98.545 Y90.298 E1.42254
G1 X98.315 Y90.865 F3600.000
G1 F1800.000 E0.42254
G92 E0
G1 X102.012 Y90.953 F3600.000
G1 F1800.000 E1.00000
G1 X103.518 Y90.953 F600.000 E1.04185
G1 X103.518 Y91.989 E1.07064
G1 X102.012 Y91.989 E1.11249
G1 X102.012 Y91.051 E1.13855
G1 X101.357 Y90.298 F3600.000
G1 X104.173 Y90.298 F600.000 E1.21676
G1 X104.173 Y92.644 E1.28191
G1 X101.357 Y92.644 E1.36012
G1 X101.357 Y90.396 E1.42254
G1 X101.924 Y90.625 F3600.000
G1 F1800.000 E0.42254
G92 E0
G1 Z3.650 F3600.000
G1 X98.275 Y90.953
G1 F1800.000 E1.00000
G1 X98.275 Y91.989 F600.000 E1.02879
G1 X96.482 Y91.989 E1.07861
G1 X96.482 Y90.953 E1.10741
G1 X98.177 Y90.953 E1.15450
G1 X98.930 Y90.298 F3600.000
G1 X98.930 Y92.644 F600.000 E1.21966
G1 X95.827 Y92.644 E1.30584
G1 X95.827 Y90.298 E1.37099
G1 X98.832 Y90.298 E1.45445
G1 X98.603 Y90.865 F3600.000
G1 F1800.000 E0.45445
G92 E0
G1 X101.725 Y90.953 F3600.000
G1 F1800.000 E1.00000
G1 X103.518 Y90.953 F600.000 E1.04982
G1 X103.518 Y91.989 E1.07861
G1 X101.725 Y91.989 E1.12844
G1 X101.725 Y91.051 E1.15450
G1 X101.070 Y90.298 F3600.000
G1 X104.173 Y90.298 F600.000 E1.24069
G1 X104.173 Y92.644 E1.30584
G1 X101.070 Y92.644 E1.39202
G1 X101.070 Y90.396 E1.45445
G1 X101.637 Y90.625 F3600.000
G1 F1800.000 E0.45445
G92 E0
G1 Z3.950 F3600.000
G1 X103.518 Y90.953
G1 F1800.000 E1.00000
G1 X103.518 Y91.989 F600.000 E1.02879
G1 X96.482 Y91.989 E1.22425
