; generated by Slic3r 0.9.9-dev on 2014-02-18 at 17:14:43

; layer_height = 0.3
; perimeters = 3
; top_solid_layers = 3
; bottom_solid_layers = 2
; fill_density = 0.5
; perimeter_speed = 30
; infill_speed = 60
; travel_speed = 60
; nozzle_diameter = 0.5
; filament_diameter = 3
; extrusion_multiplier = 1
; perimeters extrusion width = 0.70mm
; infill extrusion width = 0.70mm
; solid infill extrusion width = 0.70mm
; top infill extrusion width = 0.70mm
; first layer extrusion width = 0.70mm

G21 ; set units to millimeters
M107
M104 S160 ; set temperature
G28 ; home all axes
M109 S160 ; wait for temperature to be reached
G90 ; use absolute coordinates
G92 E0
M82 ; use absolute distances for extrusion
G1 F1800.000 E-1.00000
G92 E0
G1 Z0.350 F3600.000
G1 X64.280 Y61.490
G1 F1800.000 E1.00000
G1 X64.860 Y60.910 F540.000 E1.02669
G1 X65.620 Y60.240 E1.05965
G1 X66.270 Y59.740 E1.08633
G1 X73.750 Y54.510 E1.38328
G1 X74.440 Y54.080 E1.40973
G1 X75.320 Y53.600 E1.44235
G1 X76.060 Y53.240 E1.46912
G1 X84.520 Y49.800 E1.76625
G1 X85.320 Y49.530 E1.79372
G1 X86.290 Y49.260 E1.82648
G1 X87.070 Y49.090 E1.85246
G1 X96.080 Y47.620 E2.14947
G1 X96.900 Y47.530 E2.17631
G1 X97.910 Y47.480 E2.20921
G1 X98.730 Y47.490 E2.23590
G1 X107.840 Y48.060 E2.53287
G1 X108.690 Y48.160 E2.56072
G1 X109.680 Y48.340 E2.59345
G1 X110.440 Y48.520 E2.61887
G1 X119.190 Y51.100 E2.91567
G1 X119.950 Y51.370 E2.94191
G1 X120.880 Y51.760 E2.97472
G1 X121.630 Y52.130 E3.00193
G1 X129.590 Y56.600 E3.29895
G1 X130.280 Y57.040 E3.32557
G1 X131.100 Y57.630 E3.35844
G1 X131.740 Y58.150 E3.38527
G1 X138.500 Y64.280 E3.68217
G1 X139.080 Y64.860 E3.70885
G1 X139.750 Y65.620 E3.74182
G1 X140.250 Y66.270 E3.76850
G1 X145.480 Y73.750 E4.06545
G1 X145.910 Y74.440 E4.09190
G1 X146.390 Y75.320 E4.12452
G1 X146.750 Y76.060 E4.15129
G1 X150.190 Y84.520 E4.44842
G1 X150.460 Y85.320 E4.47589
G1 X150.730 Y86.290 E4.50865
G1 X150.900 Y87.070 E4.53462
G1 X152.370 Y96.080 E4.83164
G1 X152.480 Y97.280 E4.87085
G1 X152.510 Y97.930 E4.89202
G1 X152.500 Y98.730 E4.91805
G1 X151.930 Y107.840 E5.21502
G1 X151.830 Y108.690 E5.24287
G1 X151.650 Y109.680 E5.27561
G1 X151.470 Y110.440 E5.30102
G1 X148.890 Y119.190 E5.59782
G1 X148.630 Y119.900 E5.62242
G1 X148.420 Y120.410 E5.64036
G1 X148.160 Y121.000 E5.66134
G1 X147.850 Y121.630 E5.68419
G1 X143.390 Y129.590 E5.98105
G1 X142.710 Y130.630 E6.02147
G1 X142.330 Y131.150 E6.04243
G1 X141.840 Y131.740 E6.06738
G1 X135.710 Y138.500 E6.36428
G1 X134.990 Y139.210 E6.39718
G1 X134.290 Y139.810 E6.42718
G1 X133.720 Y140.250 E6.45060
G1 X126.240 Y145.480 E6.74756
G1 X125.640 Y145.860 E6.77066
G1 X125.180 Y146.120 E6.78785
G1 X124.620 Y146.420 E6.80852
G1 X123.930 Y146.750 E6.83341
G1 X115.470 Y150.190 E7.13054
G1 X114.370 Y150.540 E7.16810
G1 X113.670 Y150.730 E7.19170
G1 X112.920 Y150.900 E7.21672
G1 X103.910 Y152.370 E7.51373
G1 X103.130 Y152.450 E7.53924
G1 X102.220 Y152.500 E7.56890
G1 X101.260 Y152.500 E7.60013
G1 X92.150 Y151.930 E7.89711
G1 X91.300 Y151.830 E7.92495
G1 X90.310 Y151.650 E7.95769
G1 X89.550 Y151.470 E7.98310
G1 X80.800 Y148.890 E8.27990
G1 X79.980 Y148.590 E8.30831
G1 X79.050 Y148.190 E8.34125
G1 X78.360 Y147.850 E8.36627
G1 X70.400 Y143.390 E8.66313
G1 X69.710 Y142.950 E8.68976
G1 X68.890 Y142.360 E8.72263
G1 X68.250 Y141.840 E8.74946
G1 X61.490 Y135.710 E9.04636
G1 X60.910 Y135.130 E9.07304
G1 X60.240 Y134.370 E9.10601
G1 X59.740 Y133.720 E9.13269
G1 X54.510 Y126.240 E9.42964
G1 X54.080 Y125.550 E9.45609
G1 X53.600 Y124.670 E9.48870
G1 X53.240 Y123.930 E9.51548
G1 X49.800 Y115.470 E9.81261
G1 X49.530 Y114.670 E9.84008
G1 X49.260 Y113.700 E9.87284
G1 X49.090 Y112.920 E9.89881
G1 X47.620 Y103.910 E10.19583
G1 X47.530 Y103.090 E10.22267
G1 X47.480 Y102.080 E10.25557
G1 X47.490 Y101.260 E10.28225
G1 X48.060 Y92.150 E10.57923
G1 X48.160 Y91.300 E10.60707
G1 X48.340 Y90.310 E10.63981
G1 X48.520 Y89.550 E10.66522
G1 X51.100 Y80.800 E10.96202
G1 X51.370 Y80.040 E10.98826
G1 X51.760 Y79.110 E11.02107
G1 X52.130 Y78.360 E11.04828
G1 X56.600 Y70.400 E11.34530
G1 X57.040 Y69.710 E11.37193
G1 X57.630 Y68.890 E11.40480
G1 X58.150 Y68.250 E11.43162
G1 X64.214 Y61.563 E11.72532
G1 X64.770 Y61.930 F3600.000
G1 X65.300 Y61.410 F540.000 E11.74947
G1 X66.060 Y60.740 E11.78244
G1 X66.650 Y60.270 E11.80698
G1 X74.130 Y55.040 E12.10393
G1 X74.750 Y54.660 E12.12759
G1 X75.630 Y54.180 E12.16020
G1 X76.310 Y53.850 E12.18480
G1 X84.770 Y50.410 E12.48193
G1 X85.490 Y50.170 E12.50662
G1 X86.460 Y49.900 E12.53938
G1 X87.180 Y49.740 E12.56338
G1 X96.190 Y48.270 E12.86039
G1 X96.930 Y48.190 E12.88461
G1 X97.940 Y48.140 E12.91751
G1 X98.690 Y48.150 E12.94191
G1 X107.800 Y48.720 E13.23889
G1 X108.570 Y48.810 E13.26411
G1 X109.560 Y48.990 E13.29685
G1 X110.250 Y49.150 E13.31990
G1 X119.000 Y51.730 E13.61670
G1 X119.690 Y51.980 E13.64057
G1 X120.620 Y52.370 E13.67338
G1 X121.310 Y52.710 E13.69841
G1 X129.270 Y57.180 E13.99543
G1 X129.900 Y57.580 E14.01971
G1 X130.720 Y58.170 E14.05258
G1 X131.300 Y58.640 E14.07687
G1 X138.060 Y64.770 E14.37377
G1 X138.580 Y65.300 E14.39792
G1 X139.250 Y66.060 E14.43089
G1 X139.720 Y66.650 E14.45543
G1 X144.950 Y74.130 E14.75238
G1 X145.330 Y74.750 E14.77604
G1 X145.810 Y75.630 E14.80865
G1 X146.140 Y76.310 E14.83324
G1 X149.580 Y84.770 E15.13038
G1 X149.820 Y85.490 E15.15507
G1 X150.090 Y86.460 E15.18783
G1 X150.250 Y87.180 E15.21182
G1 X151.720 Y96.190 E15.50884
G1 X151.800 Y96.890 E15.53177
G1 X151.820 Y97.250 E15.54350
G1 X151.850 Y97.960 E15.56662
G1 X151.840 Y98.690 E15.59037
G1 X151.270 Y107.800 E15.88735
G1 X151.180 Y108.570 E15.91257
G1 X151.000 Y109.560 E15.94531
G1 X150.840 Y110.250 E15.96835
G1 X148.260 Y119.000 E16.26515
G1 X147.890 Y119.990 E16.29954
G1 X147.560 Y120.730 E16.32590
G1 X147.280 Y121.300 E16.34656
G1 X142.820 Y129.260 E16.64342
G1 X142.250 Y130.130 E16.67726
G1 X141.790 Y130.760 E16.70264
G1 X141.350 Y131.300 E16.72530
G1 X135.220 Y138.060 E17.02220
G1 X134.540 Y138.720 E17.05304
G1 X133.860 Y139.310 E17.08233
G1 X133.340 Y139.720 E17.10387
G1 X125.860 Y144.950 E17.40082
G1 X124.870 Y145.540 E17.43832
G1 X124.310 Y145.840 E17.45899
G1 X123.680 Y146.140 E17.48169
G1 X115.220 Y149.580 E17.77882
G1 X114.540 Y149.810 E17.80218
G1 X114.120 Y149.930 E17.81639
G1 X113.500 Y150.100 E17.83731
G1 X112.810 Y150.250 E17.86028
G1 X103.800 Y151.720 E18.15730
G1 X103.100 Y151.800 E18.18022
G1 X102.190 Y151.850 E18.20987
G1 X101.720 Y151.860 E18.22517
G1 X101.300 Y151.840 E18.23885
G1 X92.190 Y151.270 E18.53582
G1 X91.420 Y151.180 E18.56105
G1 X90.430 Y151.000 E18.59378
G1 X89.740 Y150.840 E18.61683
G1 X80.990 Y148.260 E18.91363
G1 X80.240 Y147.990 E18.93956
G1 X79.310 Y147.590 E18.97250
G1 X78.690 Y147.280 E18.99505
G1 X70.730 Y142.820 E19.29192
G1 X70.090 Y142.410 E19.31664
G1 X69.270 Y141.820 E19.34951
G1 X68.690 Y141.350 E19.37380
G1 X61.930 Y135.220 E19.67070
G1 X61.410 Y134.690 E19.69486
G1 X60.740 Y133.930 E19.72782
G1 X60.270 Y133.340 E19.75236
G1 X55.040 Y125.860 E20.04931
G1 X54.660 Y125.240 E20.07297
G1 X54.180 Y124.360 E20.10559
G1 X53.850 Y123.680 E20.13018
G1 X50.410 Y115.220 E20.42731
G1 X50.170 Y114.500 E20.45200
G1 X49.900 Y113.530 E20.48476
G1 X49.740 Y112.810 E20.50876
G1 X48.270 Y103.800 E20.80578
G1 X48.190 Y103.060 E20.82999
G1 X48.140 Y102.050 E20.86289
G1 X48.150 Y101.300 E20.88730
G1 X48.720 Y92.190 E21.18427
G1 X48.810 Y91.420 E21.20949
G1 X48.990 Y90.430 E21.24223
G1 X49.150 Y89.740 E21.26528
G1 X51.730 Y80.990 E21.56208
G1 X51.980 Y80.300 E21.58596
G1 X52.370 Y79.370 E21.61877
G1 X52.710 Y78.680 E21.64379
G1 X57.180 Y70.720 E21.94081
G1 X57.580 Y70.090 E21.96509
G1 X58.170 Y69.270 E21.99796
G1 X58.640 Y68.690 E22.02225
G1 X64.704 Y62.003 E22.31594
G1 F1800.000 E21.31594
G92 E0
G1 X77.279 Y73.433 F3600.000
G1 F1800.000 E1.00000
G1 X77.539 Y73.198 F378.000 E1.01140
G1 X80.675 Y70.858 E1.13868
G1 X80.971 Y70.668 E1.15014
G1 X84.371 Y68.718 E1.27766
G1 X87.966 Y67.168 E1.40502
G1 X91.711 Y66.033 E1.53236
G1 X92.057 Y65.947 E1.54394
G1 X95.572 Y65.327 E1.66008
G1 X95.956 Y65.267 E1.67271
G1 X99.821 Y65.035 E1.79869
G1 X100.175 Y65.035 E1.81021
G1 X104.088 Y65.271 E1.93775
G1 X107.941 Y65.946 E2.06503
G1 X108.283 Y66.032 E2.07649
G1 X112.035 Y67.168 E2.20402
G1 X115.628 Y68.718 E2.33137
G1 X119.024 Y70.665 E2.45872
G1 X119.324 Y70.857 E2.47029
G1 X122.187 Y72.989 E2.58643
G1 X122.489 Y73.223 E2.59886
G1 X125.315 Y75.880 E2.72505
G1 X125.557 Y76.138 E2.73657
G1 X128.070 Y79.146 E2.86410
G1 X130.223 Y82.413 E2.99139
G1 X130.395 Y82.720 E3.00284
G1 X132.142 Y86.229 E3.13038
G1 X133.480 Y89.907 E3.25772
G1 X134.394 Y93.713 E3.38508
G1 X134.459 Y94.063 E3.39664
G1 X134.909 Y97.953 E3.52407
G1 X134.916 Y101.867 E3.65142
G1 X134.895 Y102.220 E3.66292
G1 X134.430 Y106.113 E3.79045
G1 X133.531 Y109.921 E3.91776
G1 X133.425 Y110.256 E3.92920
G1 X132.071 Y113.935 E4.05674
G1 X130.314 Y117.432 E4.18407
G1 X128.172 Y120.709 E4.31144
G1 X127.962 Y120.995 E4.32300
G1 X125.440 Y123.992 E4.45042
G1 X122.598 Y126.683 E4.57778
G1 X122.326 Y126.909 E4.58927
G1 X119.463 Y129.041 E4.70541
G1 X119.177 Y129.241 E4.71677
G1 X118.879 Y129.416 E4.72802
G1 X115.787 Y131.201 E4.84416
G1 X115.472 Y131.353 E4.85555
G1 X112.194 Y132.767 E4.97169
G1 X111.866 Y132.893 E4.98312
G1 X108.117 Y134.013 E5.11044
G1 X104.263 Y134.704 E5.23781
G1 X103.911 Y134.747 E5.24936
G1 X99.997 Y134.969 E5.37690
G1 X96.092 Y134.747 E5.50415
G1 X95.742 Y134.704 E5.51564
G1 X91.884 Y134.014 E5.64314
G1 X88.133 Y132.892 E5.77052
G1 X84.534 Y131.356 E5.89783
G1 X84.212 Y131.200 E5.90948
G1 X80.773 Y129.206 E6.03880
G1 X77.678 Y126.912 E6.16417
G1 X77.405 Y126.685 E6.17571
G1 X74.558 Y123.990 E6.30325
G1 X72.040 Y120.997 E6.43051
G1 X71.831 Y120.713 E6.44199
G1 X69.687 Y117.432 E6.56950
G1 X67.929 Y113.935 E6.69687
G1 X66.577 Y110.262 E6.82419
G1 X66.470 Y109.922 E6.83579
G1 X65.562 Y106.057 E6.96495
G1 X65.106 Y102.225 E7.09052
G1 X65.084 Y101.871 E7.10206
G1 X65.091 Y97.951 E7.22959
G1 X65.540 Y94.065 E7.35686
G1 X65.605 Y93.718 E7.36833
G1 X66.428 Y90.245 E7.48447
G1 X66.520 Y89.907 E7.49586
G1 X67.899 Y86.139 E7.62642
G1 X69.602 Y82.725 E7.75054
G1 X69.776 Y82.414 E7.76213
G1 X71.931 Y79.145 E7.88954
G1 X74.440 Y76.140 E8.01688
G1 X74.683 Y75.882 E8.02841
G1 X77.208 Y73.500 E8.14134
G1 X77.204 Y73.091 F3600.000
G1 X76.881 Y72.660
G1 X77.786 Y71.912 F540.000 E8.17952
G1 X80.741 Y69.815 E8.29742
G1 X81.351 Y69.436 E8.32078
G1 X82.733 Y68.628 E8.37286
G1 X84.593 Y67.673 E8.44089
G1 X88.059 Y66.240 E8.56292
G1 X89.904 Y65.645 E8.62598
G1 X91.033 Y65.336 E8.66408
G1 X92.173 Y65.056 E8.70226
G1 X95.678 Y64.459 E8.81794
G1 X96.403 Y64.376 E8.84168
G1 X98.054 Y64.242 E8.89559
G1 X99.880 Y64.189 E8.95502
G1 X100.145 Y64.190 E8.96363
G1 X103.763 Y64.393 E9.08152
G1 X104.420 Y64.469 E9.10305
G1 X105.989 Y64.694 E9.15463
G1 X108.110 Y65.120 E9.22499
G1 X111.824 Y66.197 E9.35083
G1 X113.762 Y66.939 E9.41833
G1 X115.668 Y67.799 E9.48636
G1 X119.036 Y69.667 E9.61168
G1 X120.715 Y70.789 E9.67737
G1 X121.510 Y71.377 E9.70955
G1 X122.440 Y72.093 E9.74774
G1 X125.142 Y74.507 E9.86563
G1 X125.648 Y75.017 E9.88899
G1 X126.743 Y76.184 E9.94107
G1 X128.088 Y77.786 E10.00910
G1 X130.256 Y80.846 E10.13113
G1 X131.247 Y82.512 E10.19420
G1 X131.799 Y83.545 E10.23229
G1 X132.326 Y84.593 E10.27047
G1 X133.713 Y87.941 E10.38837
G1 X133.974 Y88.702 E10.41456
G1 X134.428 Y90.146 E10.46381
G1 X134.944 Y92.173 E10.53184
G1 X135.586 Y95.987 E10.65768
G1 X135.753 Y97.983 E10.72285
G1 X135.811 Y99.880 E10.78460
G1 X135.810 Y100.145 E10.79321
G1 X135.611 Y103.695 E10.90889
G1 X135.587 Y104.006 E10.91905
G1 X135.306 Y105.989 E10.98422
G1 X134.880 Y108.109 E11.05458
G1 X133.803 Y111.824 E11.18042
G1 X133.061 Y113.762 E11.24792
G1 X132.201 Y115.668 E11.31595
G1 X130.333 Y119.036 E11.44128
G1 X129.211 Y120.715 E11.50696
G1 X128.623 Y121.510 E11.53914
G1 X127.907 Y122.440 E11.57732
G1 X125.493 Y125.142 E11.69522
G1 X124.983 Y125.647 E11.71857
G1 X123.816 Y126.743 E11.77066
G1 X122.214 Y128.087 E11.83869
G1 X119.315 Y130.146 E11.95437
G1 X119.056 Y130.320 E11.96453
G1 X117.330 Y131.337 E12.02970
G1 X115.407 Y132.326 E12.10006
G1 X111.941 Y133.760 E12.22209
G1 X110.843 Y134.119 E12.25969
G1 X109.854 Y134.428 E12.29340
G1 X107.827 Y134.944 E12.36143
G1 X104.017 Y135.585 E12.48714
G1 X100.000 Y135.811 E12.61803
G1 X95.985 Y135.585 E12.74888
G1 X94.011 Y135.306 E12.81376
G1 X92.148 Y134.939 E12.87551
G1 X91.890 Y134.880 E12.88412
G1 X88.474 Y133.896 E12.99980
G1 X88.175 Y133.803 E13.00997
G1 X86.304 Y133.088 E13.07513
G1 X84.332 Y132.201 E13.14549
G1 X80.964 Y130.333 E13.27081
G1 X79.285 Y129.211 E13.33650
G1 X78.490 Y128.623 E13.36868
G1 X77.560 Y127.907 E13.40687
G1 X74.858 Y125.492 E13.52476
G1 X74.352 Y124.983 E13.54811
G1 X73.257 Y123.815 E13.60020
G1 X71.912 Y122.214 E13.66823
G1 X69.744 Y119.154 E13.79026
G1 X68.753 Y117.488 E13.85332
G1 X68.201 Y116.455 E13.89142
G1 X67.674 Y115.407 E13.92960
G1 X66.287 Y112.059 E14.04750
G1 X65.994 Y111.197 E14.07712
G1 X65.572 Y109.853 E14.12294
G1 X65.056 Y107.827 E14.19097
G1 X64.414 Y104.013 E14.31681
G1 X64.246 Y102.017 E14.38198
G1 X64.189 Y100.120 E14.44373
G1 X64.190 Y99.855 E14.45234
G1 X64.393 Y96.237 E14.57024
G1 X64.469 Y95.580 E14.59176
G1 X64.694 Y94.010 E14.64335
G1 X65.120 Y91.890 E14.71370
G1 X66.197 Y88.175 E14.83954
G1 X66.939 Y86.238 E14.90704
G1 X67.799 Y84.332 E14.97507
G1 X69.676 Y80.950 E15.10091
G1 X70.789 Y79.285 E15.16608
G1 X71.927 Y77.766 E15.22784
G1 X72.093 Y77.560 E15.23645
G1 X74.641 Y74.714 E15.36073
G1 X76.131 Y73.304 E15.42746
G1 X76.806 Y72.724 E15.45643
G1 F1800.000 E14.45643
G92 E0
G1 X102.189 Y141.885 F3600.000
G1 F1800.000 E1.00000
G1 X102.309 Y144.776 F540.000 E1.09414
G1 X102.229 Y144.721 F3600.000
G1 X102.218 Y144.733 F540.000 E1.09465
G1 X102.218 Y144.733 F3600.000
G1 X101.952 Y145.009 F540.000 E1.10715
G1 X102.189 Y141.885 F3600.000
G1 X102.169 Y141.833 F540.000 E1.10898
G1 X102.169 Y141.833 F3600.000
G1 X102.177 Y141.534 F540.000 E1.11869
G1 X102.177 Y141.534 F3600.000
G1 X102.168 Y141.268 F540.000 E1.12737
G1 X102.168 Y141.268 F3600.000
G1 X102.156 Y140.509 F540.000 E1.15207
G1 X102.156 Y140.509 F3600.000
G1 X102.169 Y138.550 F540.000 E1.21578
G1 X102.012 Y137.434 E1.25244
G1 F1800.000 E0.25244
G92 E0
G1 X93.594 Y137.474 F3600.000
G1 F1800.000 E1.00000
G1 X92.671 Y142.196 F540.000 E1.15654
G1 X92.671 Y142.196 F3600.000
G1 X92.176 Y144.133 F540.000 E1.22159
G1 X92.224 Y144.101 F3600.000
G1 X92.424 Y144.310 F540.000 E1.23100
G1 F1800.000 E0.23100
G92 E0
G1 X82.750 Y141.512 F3600.000
G1 F1800.000 E1.00000
G1 X82.603 Y141.269 F540.000 E1.00924
G1 X82.603 Y141.269 F3600.000
G1 X82.731 Y141.000 F540.000 E1.01896
G1 X82.731 Y141.000 F3600.000
G1 X83.464 Y139.535 F540.000 E1.07224
G1 X83.464 Y139.535 F3600.000
G1 X85.416 Y135.109 F540.000 E1.22963
G1 X82.603 Y141.269 F3600.000
G1 X82.558 Y141.278 F540.000 E1.23110
G1 F1800.000 E0.23110
G92 E0
G1 X73.949 Y136.635 F3600.000
G1 F1800.000 E1.00000
G1 X73.859 Y136.360 F540.000 E1.00941
G1 X73.859 Y136.360 F3600.000
G1 X74.040 Y136.129 F540.000 E1.01896
G1 X74.040 Y136.129 F3600.000
G1 X75.081 Y134.864 F540.000 E1.07224
G1 X75.081 Y134.864 F3600.000
G1 X77.969 Y130.984 F540.000 E1.22963
G1 X73.859 Y136.360 F3600.000
G1 X73.802 Y136.368 F540.000 E1.23150
G1 F1800.000 E0.23150
G92 E0
G1 X66.450 Y129.919 F3600.000
G1 F1800.000 E1.00000
G1 X66.424 Y129.631 F540.000 E1.00941
G1 X66.424 Y129.631 F3600.000
G1 X66.652 Y129.446 F540.000 E1.01896
G1 X66.652 Y129.446 F3600.000
G1 X67.948 Y128.445 F540.000 E1.07224
G1 X67.948 Y128.445 F3600.000
G1 X71.627 Y125.304 F540.000 E1.22963
G1 X66.424 Y129.631 F3600.000
G1 X66.366 Y129.627 F540.000 E1.23150
G1 F1800.000 E0.23150
G92 E0
G1 X60.639 Y121.714 F3600.000
G1 F1800.000 E1.00000
G1 X60.637 Y121.565 F540.000 E1.00484
G1 X60.637 Y121.565 F3600.000
G1 X60.688 Y121.413 F540.000 E1.01006
G1 X60.478 Y121.361 E1.01712
G1 X60.688 Y121.413 F3600.000
G1 X60.937 Y121.288 F540.000 E1.02617
G1 X60.937 Y121.288 F3600.000
G1 X62.377 Y120.624 F540.000 E1.07778
G1 X62.377 Y120.624 F3600.000
G1 X66.707 Y118.356 F540.000 E1.23681
G1 F1800.000 E0.23681
G92 E0
G1 X63.457 Y110.488 F3600.000
G1 F1800.000 E1.00000
