; generated by Slic3r 0.9.9-dev on 2014-01-17 at 17:12:48

; layer_height = 0.4
; perimeters = 3
; top_solid_layers = 3
; bottom_solid_layers = 3
; fill_density = 0.4
; perimeter_speed = 30
; infill_speed = 60
; travel_speed = 130
; nozzle_diameter = 0.5
; filament_diameter = 3
; extrusion_multiplier = 1
; perimeters extrusion width = 0.53mm
; infill extrusion width = 0.53mm
; solid infill extrusion width = 0.53mm
; top infill extrusion width = 0.53mm
; first layer extrusion width = 0.70mm

G21 ; set units to millimeters
M107
M104 S200 ; set temperature
G28 ; home all axes
G1 Z5 F5000 ; lift nozzle

M109 S200 ; wait for temperature to be reached
G90 ; use absolute coordinates
G92 E0
M82 ; use absolute distances for extrusion
G1 F1800.000 E-1.00000
G92 E0
G1 Z0.350 F7800.000
G1 X18.700 Y18.890
G1 F1800.000 E1.00000
G1 X19.290 Y18.340 F540.000 E1.02624
G1 X19.720 Y18.020 E1.04368
G1 X20.170 Y17.730 E1.06110
G1 X20.890 Y17.380 E1.08715
G1 X21.390 Y17.190 E1.10455
G1 X22.170 Y16.980 E1.13083
G1 X22.960 Y16.860 E1.15683
G1 X23.500 Y16.840 E1.17441
G1 X176.500 Y16.840 E6.15230
G1 X177.040 Y16.860 E6.16988
G1 X177.830 Y16.980 E6.19587
G1 X178.610 Y17.190 E6.22216
G1 X179.110 Y17.380 E6.23956
G1 X179.830 Y17.730 E6.26560
G1 X180.060 Y17.870 E6.27437
G1 X180.710 Y18.340 E6.30046
G1 X181.110 Y18.700 E6.31797
G1 X181.660 Y19.290 E6.34421
G1 X181.980 Y19.720 E6.36165
G1 X182.270 Y20.170 E6.37907
G1 X182.620 Y20.890 E6.40512
G1 X182.810 Y21.390 E6.42252
G1 X183.020 Y22.170 E6.44880
G1 X183.140 Y22.960 E6.47480
G1 X183.160 Y23.500 E6.49238
G1 X183.160 Y176.500 E11.47027
G1 X183.140 Y177.040 E11.48785
G1 X183.020 Y177.830 E11.51385
G1 X182.810 Y178.610 E11.54013
G1 X182.620 Y179.110 E11.55753
G1 X182.270 Y179.830 E11.58358
G1 X182.130 Y180.060 E11.59234
G1 X181.660 Y180.710 E11.61843
G1 X181.300 Y181.110 E11.63594
G1 X180.710 Y181.660 E11.66219
G1 X180.280 Y181.980 E11.67962
G1 X179.830 Y182.270 E11.69704
G1 X179.110 Y182.620 E11.72309
G1 X178.610 Y182.810 E11.74049
G1 X177.830 Y183.020 E11.76677
G1 X177.040 Y183.140 E11.79277
G1 X176.500 Y183.160 E11.81035
G1 X23.500 Y183.160 E16.78824
G1 X22.960 Y183.140 E16.80582
G1 X22.170 Y183.020 E16.83182
G1 X21.390 Y182.810 E16.85810
G1 X20.890 Y182.620 E16.87550
G1 X20.170 Y182.270 E16.90155
G1 X19.940 Y182.130 E16.91031
G1 X19.290 Y181.660 E16.93640
G1 X18.890 Y181.300 E16.95391
G1 X18.340 Y180.710 E16.98016
G1 X18.020 Y180.280 E16.99760
G1 X17.730 Y179.830 E17.01501
G1 X17.380 Y179.110 E17.04106
G1 X17.190 Y178.610 E17.05846
G1 X16.980 Y177.830 E17.08474
G1 X16.860 Y177.040 E17.11074
G1 X16.840 Y176.500 E17.12832
G1 X16.840 Y23.500 E22.10621
G1 X16.860 Y22.960 E22.12379
G1 X16.930 Y22.430 E22.14118
G1 X17.110 Y21.650 E22.16723
G1 X17.280 Y21.140 E22.18472
G1 X17.490 Y20.650 E22.20206
G1 X17.730 Y20.170 E22.21952
G1 X17.870 Y19.940 E22.22828
G1 X18.340 Y19.290 E22.25438
G1 X18.634 Y18.963 E22.26868
G1 F1800.000 E21.26868
G92 E0
G1 X24.171 Y24.171 F7800.000
G1 F1800.000 E1.00000
G1 X175.829 Y24.171 F378.000 E5.93420
G1 X175.829 Y175.829 E10.86839
G1 X24.171 Y175.829 E15.80259
G1 X24.171 Y24.270 E20.73358
G1 X24.171 Y23.514 F7800.000
G1 X23.829 Y23.829
G1 X176.171 Y23.829 F540.000 E25.69008
G1 X176.171 Y176.171 E30.64659
G1 X23.829 Y176.171 E35.60310
G1 X23.829 Y23.927 E40.55641
G1 F1800.000 E39.55641
G92 E0
G1 X29.271 Y29.271 F7800.000
G1 F1800.000 E1.00000
G1 X170.729 Y29.271 F378.000 E5.60234
G1 X170.729 Y170.729 E10.20467
G1 X29.271 Y170.729 E14.80701
G1 X29.271 Y29.370 E19.40614
G1 X29.271 Y28.614 F7800.000
G1 X28.929 Y28.929
G1 X171.071 Y28.929 F540.000 E24.03079
G1 X171.071 Y171.071 E28.65544
G1 X28.929 Y171.071 E33.28009
G1 X28.929 Y29.027 E37.90153
G1 F1800.000 E36.90153
G92 E0
G1 X34.371 Y34.371 F7800.000
G1 F1800.000 E1.00000
G1 X165.629 Y34.371 F378.000 E5.27048
G1 X165.629 Y165.629 E9.54095
G1 X34.371 Y165.629 E13.81143
G1 X34.371 Y34.470 E18.07870
G1 X34.371 Y33.714 F7800.000
G1 X34.029 Y34.029
G1 X165.971 Y34.029 F540.000 E22.37149
G1 X165.971 Y165.971 E26.66428
G1 X34.029 Y165.971 E30.95708
G1 X34.029 Y34.127 E35.24666
G1 F1800.000 E34.24666
G92 E0
G1 X111.003 Y23.999 F7800.000
G1 F1800.000 E1.00000
G1 X175.976 Y24.024 F378.000 E3.11390
G1 X175.919 Y24.081 F7800.000
G1 X175.996 Y57.531 F540.000 E4.20221
G1 X175.996 Y57.531 F7800.000
G1 X175.996 Y63.823 F540.000 E4.40692
G1 X175.996 Y63.823 F7800.000
G1 X175.997 Y66.619 F540.000 E4.49789
G1 X175.997 Y66.619 F7800.000
G1 X175.997 Y66.969 F540.000 E4.50927
G1 X175.997 Y66.969 F7800.000
G1 X175.997 Y67.668 F540.000 E4.53201
G1 X175.997 Y67.668 F7800.000
G1 X175.997 Y68.367 F540.000 E4.55476
G1 X175.997 Y68.367 F7800.000
G1 X175.997 Y69.416 F540.000 E4.58887
G1 X175.997 Y69.416 F7800.000
G1 X175.999 Y92.135 F540.000 E5.32807
G1 X175.999 Y92.135 F7800.000
G1 X175.976 Y175.976 F378.000 E8.05584
G1 X175.919 Y175.919 F7800.000
G1 X140.372 Y175.996 F540.000 E9.21239
G1 X140.372 Y175.996 F7800.000
G1 X127.771 Y176.003 F540.000 E9.62237
G1 X127.771 Y176.003 F7800.000
G1 X126.723 Y176.003 F540.000 E9.65646
G1 X126.723 Y176.003 F7800.000
G1 X101.922 Y176.000 F540.000 E10.46334
G1 X101.922 Y176.000 F7800.000
G1 X61.401 Y176.004 F540.000 E11.78173
G1 X61.401 Y176.004 F7800.000
G1 X49.524 Y176.005 F540.000 E12.16814
G1 X49.524 Y176.005 F7800.000
G1 X43.200 Y175.994 F540.000 E12.37388
G1 X43.200 Y175.994 F7800.000
G1 X28.216 Y176.007 F540.000 E12.86140
G1 X28.216 Y176.007 F7800.000
G1 X24.081 Y175.919 F540.000 E12.99596
G1 X24.024 Y175.976 F7800.000
G1 X23.997 Y128.818 F378.000 E14.53024
G1 X23.997 Y128.818 F7800.000
G1 X23.997 Y128.120 F540.000 E14.55297
G1 X23.997 Y128.120 F7800.000
G1 X23.997 Y127.771 F540.000 E14.56434
G1 X23.997 Y127.771 F7800.000
G1 X23.997 Y127.421 F540.000 E14.57570
G1 X23.997 Y127.421 F7800.000
G1 X23.997 Y127.072 F540.000 E14.58707
G1 X23.997 Y127.072 F7800.000
G1 X23.998 Y120.435 F540.000 E14.80301
G1 X23.998 Y120.435 F7800.000
G1 X23.999 Y105.764 F540.000 E15.28034
G1 X23.999 Y105.764 F7800.000
G1 X24.024 Y24.024 F378.000 E17.93976
G1 X24.081 Y24.081 F7800.000
G1 X24.723 Y23.993 F540.000 E17.96083
G1 X24.723 Y23.993 F7800.000
G1 X25.024 Y24.007 F540.000 E17.97066
G1 X25.024 Y24.007 F7800.000
G1 X26.422 Y24.007 F540.000 E18.01615
G1 X26.422 Y24.007 F7800.000
G1 X27.122 Y24.007 F540.000 E18.03889
G1 X27.122 Y24.007 F7800.000
G1 X36.909 Y24.006 F540.000 E18.35731
G1 X36.909 Y24.006 F7800.000
G1 X54.414 Y23.995 F540.000 E18.92687
G1 X54.414 Y23.995 F7800.000
G1 X59.305 Y23.996 F540.000 E19.08598
G1 X59.305 Y23.996 F7800.000
G1 X106.113 Y23.999 F378.000 E20.60890
G1 X106.113 Y23.999 F7800.000
G1 X111.003 Y23.999 F540.000 E20.76801
G1 F1800.000 E19.76801
G92 E0
G1 X125.375 Y29.086 F7800.000
G1 F1800.000 E1.00000
G1 X159.395 Y29.110 F540.000 E2.10683
G1 X159.395 Y29.110 F7800.000
G1 X170.875 Y29.125 F540.000 E2.48035
G1 X170.819 Y29.181 F7800.000
G1 X170.885 Y79.736 F378.000 E4.12518
G1 X170.885 Y79.736 F7800.000
G1 X170.885 Y80.435 F540.000 E4.14791
G1 X170.885 Y80.435 F7800.000
G1 X170.885 Y87.772 F540.000 E4.38662
G1 X170.885 Y87.772 F7800.000
G1 X170.885 Y115.722 F540.000 E5.29599
G1 X170.885 Y115.722 F7800.000
G1 X170.875 Y170.875 F378.000 E7.09041
G1 X170.819 Y170.819 F7800.000
G1 X85.326 Y170.885 F378.000 E9.87195
G1 X85.326 Y170.885 F7800.000
G1 X73.098 Y170.886 F540.000 E10.26980
G1 X73.098 Y170.886 F7800.000
G1 X31.871 Y170.892 F378.000 E11.61112
G1 X31.871 Y170.892 F7800.000
G1 X30.175 Y170.908 F540.000 E11.66630
G1 X30.175 Y170.908 F7800.000
G1 X29.775 Y170.893 F540.000 E11.67933
G1 X29.775 Y170.893 F7800.000
G1 X29.475 Y170.908 F540.000 E11.68910
G1 X29.475 Y170.908 F7800.000
G1 X29.181 Y170.819 F540.000 E11.69909
G1 X29.125 Y170.875 F7800.000
G1 X29.089 Y150.925 F540.000 E12.34817
G1 X29.089 Y150.925 F7800.000
G1 X29.089 Y150.225 F540.000 E12.37094
G1 X29.089 Y150.225 F7800.000
G1 X29.086 Y133.425 F540.000 E12.91753
G1 X29.086 Y133.425 F7800.000
G1 X29.086 Y133.075 F540.000 E12.92892
G1 X29.086 Y133.075 F7800.000
G1 X29.086 Y132.375 F540.000 E12.95170
G1 X29.086 Y132.375 F7800.000
G1 X29.086 Y130.975 F540.000 E12.99725
G1 X29.086 Y130.975 F7800.000
G1 X29.086 Y130.625 F540.000 E13.00863
G1 X29.086 Y130.625 F7800.000
G1 X29.086 Y127.475 F540.000 E13.11112
G1 X29.086 Y127.475 F7800.000
G1 X29.085 Y102.625 F540.000 E13.91962
G1 X29.085 Y102.625 F7800.000
G1 X29.125 Y29.125 F378.000 E16.31096
G1 X29.181 Y29.181 F7800.000
G1 X29.475 Y29.093 F540.000 E16.32095
G1 X29.475 Y29.093 F7800.000
G1 X30.124 Y29.108 F540.000 E16.34208
G1 X30.124 Y29.108 F7800.000
G1 X30.175 Y29.092 F540.000 E16.34381
G1 X30.175 Y29.092 F7800.000
G1 X34.375 Y29.091 F540.000 E16.48045
G1 X34.375 Y29.091 F7800.000
G1 X69.375 Y29.086 F540.000 E17.61919
G1 X69.375 Y29.086 F7800.000
G1 X74.845 Y29.114 F540.000 E17.79714
G1 X74.845 Y29.114 F7800.000
G1 X125.375 Y29.086 F378.000 E19.44116
G1 F1800.000 E18.44116
G92 E0
G1 X154.300 Y34.210 F7800.000
G1 F1800.000 E1.00000
G1 X165.775 Y34.225 F540.000 E1.37334
G1 X165.719 Y34.281 F7800.000
G1 X165.786 Y126.015 F378.000 E4.35794
G1 X165.786 Y126.015 F7800.000
G1 X165.719 Y165.719 F378.000 E5.64972
G1 X106.997 Y165.815 E7.56025
G1 X106.997 Y165.815 F7800.000
G1 X35.224 Y165.792 F378.000 E9.89542
G1 X35.224 Y165.792 F7800.000
G1 X34.281 Y165.719 F540.000 E9.92619
G1 X34.225 Y165.775 F7800.000
G1 X34.187 Y137.436 F540.000 E10.84822
G1 X34.187 Y137.436 F7800.000
G1 X34.186 Y124.491 F540.000 E11.26939
G1 X34.186 Y124.491 F7800.000
G1 X34.185 Y116.094 F540.000 E11.54258
G1 X34.185 Y116.094 F7800.000
G1 X34.185 Y114.345 F540.000 E11.59950
G1 X34.185 Y114.345 F7800.000
G1 X34.185 Y111.896 F540.000 E11.67918
G1 X34.185 Y111.896 F7800.000
G1 X34.185 Y111.196 F540.000 E11.70194
G1 X34.185 Y111.196 F7800.000
G1 X34.185 Y87.755 F540.000 E12.46461
G1 X34.185 Y87.755 F7800.000
G1 X34.186 Y77.958 F540.000 E12.78333
G1 X34.186 Y77.958 F7800.000
G1 X34.186 Y71.661 F540.000 E12.98823
G1 X34.186 Y71.661 F7800.000
G1 X34.225 Y34.225 F540.000 E14.20621
G1 X34.281 Y34.281 F7800.000
G1 X34.875 Y34.207 F540.000 E14.22568
G1 X34.875 Y34.207 F7800.000
G1 X39.473 Y34.191 F540.000 E14.37528
G1 X39.473 Y34.191 F7800.000
G1 X40.811 Y34.209 F540.000 E14.41882
G1 X40.811 Y34.209 F7800.000
G1 X154.300 Y34.210 F378.000 E18.11122
G1 F1800.000 E17.11122
G92 E0
G1 X165.719 Y165.719 F7800.000
G1 F1800.000 E1.00000
G1 X165.775 Y165.775 F540.000 E1.00258
G1 X165.775 Y165.775 F7800.000
G1 X165.775 Y165.775 F1800.000
G1 F1800.000 E0.00258
G92 E0
G1 Z0.750 F7800.000
G1 X175.760 Y175.760
G1 F1800.000 E1.00000
G1 X24.240 Y175.760 F1260.000 E5.45548
G1 X24.240 Y24.240 E9.91097
G1 X175.760 Y24.240 E14.36645
G1 X175.760 Y175.682 E18.81964
G1 X175.760 Y176.279 F7800.000
G1 X176.240 Y176.240
G1 X23.760 Y176.240 F1800.000 E23.30338
G1 X23.760 Y23.760 E27.78711
G1 X176.240 Y23.760 E32.27085
G1 X176.240 Y176.162 E36.75229
G1 F1800.000 E35.75229
G92 E0
G1 X170.660 Y170.660 F7800.000
G1 F1800.000 E1.00000
G1 X29.340 Y170.660 F1260.000 E5.15555
G1 X29.340 Y29.340 E9.31110
G1 X170.660 Y29.340 E13.46665
G1 X170.660 Y170.582 E17.61991
G1 X170.660 Y171.179 F7800.000
G1 X171.140 Y171.140
G1 X28.860 Y171.140 F1800.000 E21.80371
G1 X28.860 Y28.860 E25.98751
G1 X171.140 Y28.860 E30.17131
G1 X171.140 Y171.062 E34.35282
G1 F1800.000 E33.35282
G92 E0
G1 X165.560 Y165.560 F7800.000
G1 F1800.000 E1.00000
G1 X34.440 Y165.560 F1260.000 E4.85562
G1 X34.440 Y34.440 E8.71123
G1 X165.560 Y34.440 E12.56685
G1 X165.560 Y165.482 E16.42017
G1 X165.560 Y166.079 F7800.000
G1 X166.040 Y166.040
G1 X33.960 Y166.040 F1800.000 E20.30404
G1 X33.960 Y33.960 E24.18790
G1 X166.040 Y33.960 E28.07177
G1 X166.040 Y165.962 E31.95334
G1 F1800.000 E30.95334
G92 E0
G1 X175.992 Y66.313 F7800.000
G1 F1800.000 E1.00000
G1 X176.005 Y24.419 F1260.000 E2.23193
G1 X175.844 Y24.051 E2.24375
G1 X24.419 Y23.995 E6.69646
G1 X24.085 Y24.085 E6.70663
G1 X23.894 Y23.894 E6.71457
G1 X24.085 Y24.085 F7800.000
G1 X23.995 Y24.419 F1260.000 E6.72474
G1 X23.993 Y149.863 E10.41347
G1 X23.993 Y149.863 F7800.000
G1 X23.995 Y175.581 F1800.000 E11.16973
G1 X24.085 Y175.915 E11.17990
G1 X23.894 Y176.106 E11.18784
G1 X24.085 Y175.915 F7800.000
G1 X24.156 Y175.949 F1800.000 E11.19017
G1 X24.156 Y175.949 F7800.000
G1 X24.419 Y176.005 F1800.000 E11.19806
G1 X24.419 Y176.005 F7800.000
G1 X30.923 Y175.994 F1800.000 E11.38932
G1 X30.923 Y175.994 F7800.000
G1 X51.449 Y176.007 F1800.000 E11.99291
G1 X51.449 Y176.007 F7800.000
G1 X53.549 Y176.007 F1800.000 E12.05465
G1 X53.549 Y176.007 F7800.000
G1 X117.583 Y176.008 F1260.000 E13.93760
G1 X117.583 Y176.008 F7800.000
G1 X173.482 Y176.005 F1260.000 E15.58132
G1 X173.482 Y176.005 F7800.000
G1 X175.581 Y176.005 F1260.000 E15.64306
G1 X175.915 Y175.915 E15.65323
G1 X176.005 Y175.581 E15.66340
G1 X175.992 Y66.313 E18.87646
G1 F1800.000 E17.87646
G92 E0
G1 X170.892 Y66.177 F7800.000
G1 F1800.000 E1.00000
G1 X170.892 Y65.914 F1800.000 E1.00771
G1 X170.892 Y65.914 F7800.000
G1 X170.892 Y65.390 F1800.000 E1.02313
G1 X170.892 Y65.390 F7800.000
G1 X170.894 Y40.481 F1800.000 E1.75558
G1 X170.894 Y40.481 F7800.000
G1 X170.894 Y35.762 F1800.000 E1.89436
G1 X170.894 Y35.762 F7800.000
G1 X170.905 Y29.519 F1260.000 E2.07793
G1 X170.815 Y29.185 E2.08811
G1 X170.481 Y29.095 E2.09829
G1 X29.519 Y29.095 E6.24334
G1 X29.185 Y29.185 E6.25351
G1 X28.994 Y28.994 F7800.000
G1 X29.185 Y29.185 F1260.000 E6.26145
G1 X29.095 Y29.519 E6.27162
G1 X29.095 Y170.481 E10.41667
G1 X29.256 Y170.850 E10.42850
G1 X170.481 Y170.905 E14.58126
G1 X170.815 Y170.815 E14.59144
G1 X170.905 Y170.481 E14.60162
G1 X170.892 Y76.402 E17.36804
G1 X170.892 Y76.402 F7800.000
G1 X170.892 Y66.963 F1800.000 E17.64560
G1 X170.892 Y66.963 F7800.000
G1 X170.892 Y66.701 F1800.000 E17.65331
G1 X170.892 Y66.701 F7800.000
G1 X170.892 Y66.177 F1800.000 E17.66873
G1 F1800.000 E16.66873
G92 E0
G1 X165.716 Y34.284 F7800.000
G1 F1800.000 E1.00000
G1 X165.907 Y34.093 F1800.000 E1.00796
G1 F1800.000 E0.00796
G92 E0
G1 X170.815 Y29.185 F7800.000
G1 F1800.000 E1.00000
G1 X171.006 Y28.994 F1800.000 E1.00793
G1 F1800.000 E0.00793
G92 E0
G1 X175.915 Y24.085 F7800.000
G1 F1800.000 E1.00000
G1 X176.106 Y23.894 F1800.000 E1.00794
G1 F1800.000 E0.00794
G92 E0
G1 X34.284 Y34.284 F7800.000
G1 F1800.000 E1.00000
G1 X34.195 Y34.617 F1800.000 E1.01013
G1 X34.196 Y47.458 E1.38772
G1 X34.196 Y47.458 F7800.000
G1 X34.196 Y47.720 F1800.000 E1.39542
G1 X34.196 Y47.720 F7800.000
G1 X34.196 Y48.768 F1800.000 E1.42625
G1 X34.196 Y48.768 F7800.000
G1 X34.196 Y49.030 F1800.000 E1.43395
G1 X34.196 Y49.030 F7800.000
G1 X34.196 Y55.058 F1800.000 E1.61119
G1 X34.196 Y55.058 F7800.000
G1 X34.199 Y85.456 F1800.000 E2.50506
G1 X34.199 Y85.456 F7800.000
G1 X34.199 Y86.504 F1800.000 E2.53588
G1 X34.199 Y86.504 F7800.000
G1 X34.195 Y165.383 F1260.000 E4.85534
G1 X34.284 Y165.716 E4.86547
G1 X34.617 Y165.805 E4.87560
G1 X165.645 Y165.749 E8.72851
G1 X165.805 Y165.383 E8.74027
G1 X165.805 Y34.617 E12.58548
G1 X165.716 Y34.284 E12.59561
G1 X165.383 Y34.195 E12.60574
G1 X34.617 Y34.195 E16.45094
G1 X34.284 Y34.284 E16.46108
G1 X34.093 Y34.093 E16.46904
G1 X34.284 Y165.716 F7800.000
G1 X34.093 Y165.907 F1800.000 E16.47700
G1 F1800.000 E15.47700
G92 E0
G1 X29.185 Y170.815 F7800.000
G1 F1800.000 E1.00000
G1 X28.994 Y171.006 F1800.000 E1.00793
G1 F1800.000 E0.00793
G92 E0
G1 X165.716 Y165.716 F7800.000
G1 F1800.000 E1.00000
G1 X165.907 Y165.907 F1800.000 E1.00796
G1 F1800.000 E0.00796
G92 E0
G1 X170.815 Y170.815 F7800.000
G1 F1800.000 E1.00000
G1 X171.006 Y171.006 F1800.000 E1.00793
G1 F1800.000 E0.00793
G92 E0
G1 X175.915 Y175.915 F7800.000
G1 F1800.000 E1.00000
G1 X176.106 Y176.106 F1800.000 E1.00794
G1 F1800.000 E0.00794
G92 E0
G1 Z1.150 F7800.000
G1 X175.760 Y175.760
G1 F1800.000 E1.00000
G1 X24.240 Y175.760 F1260.000 E5.45548
G1 X24.240 Y24.240 E9.91097
G1 X175.760 Y24.240 E14.36645
G1 X175.760 Y175.682 E18.81964
G1 X175.760 Y176.279 F7800.000
G1 X176.240 Y176.240
G1 X23.760 Y176.240 F1800.000 E23.30338
G1 X23.760 Y23.760 E27.78711
G1 X176.240 Y23.760 E32.27085
G1 X176.240 Y176.162 E36.75229
G1 F1800.000 E35.75229
G92 E0
G1 X170.660 Y170.660 F7800.000
G1 F1800.000 E1.00000
G1 X29.340 Y170.660 F1260.000 E5.15555
G1 X29.340 Y29.340 E9.31110
